<?xml version="1.0" encoding="UTF-8"?>
<map version="1.10" tiledversion="1.10.2" orientation="orthogonal" renderorder="right-down" width="30" height="20" tilewidth="16" tileheight="16" infinite="1" nextlayerid="19" nextobjectid="1">
 <editorsettings>
  <export target="World.json" format="json"/>
 </editorsettings>
 <tileset firstgid="1" source="tileset.tsx"/>
 <tileset firstgid="5308" source="../../../Meadow-Guarder - Copy/client - Copy/maps/walls.tsx"/>
 <layer id="1" name="Ground Terrain" width="30" height="20">
  <data encoding="csv">
   <chunk x="-16" y="-16" width="16" height="16">
62,62,1,1,62,1,1,1,1,1,62,62,1,62,1,1,
62,62,1,1,1,1,1,62,1,62,1,62,62,62,62,1,
62,1,1,62,62,1,62,1,1,62,62,1,1,1,62,1,
62,1,62,1,1,62,1,62,62,62,1,62,62,62,1,62,
1,62,1,62,1,62,1,62,62,1,62,62,62,62,1,1,
62,1,1,1,1,62,62,62,1,62,1,62,1,62,1,62,
1,1,1,1,1,62,62,1,62,62,62,62,62,1,62,1,
62,62,62,62,1,1,62,62,1,1,62,1,1,1,1,1,
1,1,1,62,62,1,1,1,62,62,1,1,62,62,1,62,
62,1,62,1,62,1,1,62,1,1,1,1,1,62,1,1,
62,1,1,1,62,62,1,62,62,1,1,62,1,62,62,1,
62,62,62,1,62,62,62,62,1,62,62,1,1,62,62,1,
1,1,62,62,1,1,62,62,1,62,62,62,1,1,1,62,
1,62,62,1,1,1,62,62,1,62,1,62,62,62,62,1,
1,1,1,62,1,62,1,62,1,1,62,1,62,62,1,1,
1,1,62,1,1,62,62,62,62,1,1,1,62,1,1,1
</chunk>
   <chunk x="0" y="-16" width="16" height="16">
1,62,62,62,62,1,62,1,1,1,1,1,62,62,1,62,
1,1,1,1,62,1,1,62,62,1,62,62,1,62,62,62,
1,1,1,1,1,1,62,62,1,1,62,1,1,62,1,62,
62,1,62,62,1,62,62,62,62,62,62,62,1,1,1,62,
62,1,62,1,1,1,1,1,1,1,62,1,62,62,1,1,
62,1,1,62,62,62,1,62,62,1,1,1,1,62,1,62,
62,1,1,1,62,62,1,62,62,1,62,62,62,62,1,62,
62,62,62,1,62,1,1,1,62,1,1,1,62,1,1,62,
1,1,62,1,1,1,62,62,1,1,62,1,62,1,62,1,
1,62,62,62,1,1,1,62,62,62,62,1,62,1,1,1,
1,62,1,62,62,62,62,62,62,62,1,62,1,62,62,62,
62,1,62,62,1,1,62,62,1,62,62,1,1,62,62,62,
62,62,1,62,1,62,62,62,1,1,1,1,62,62,62,62,
62,1,62,62,62,1,62,62,62,62,62,1,62,1,1,62,
62,1,1,1,62,62,1,62,1,1,62,62,62,62,1,62,
1,1,62,1,62,1,62,1,1,62,1,1,1,62,62,62
</chunk>
   <chunk x="-16" y="0" width="16" height="16">
1,62,1,62,1,1,1,1,62,1,62,1,62,62,62,1,
1,1,1,62,62,1,1,62,1,62,1,62,1,62,1,1,
62,62,1,1,62,1,1,62,1,62,62,1,1,62,62,62,
62,62,1,62,62,1,62,62,62,62,1,62,62,1,1,1,
1,1,62,1,62,62,62,62,1,1,1,62,62,62,62,62,
62,1,1,62,1,1,62,62,62,62,1,1,1,1,1,1,
1,62,1,1,1,1,62,62,62,1,62,1,1,62,1,62,
62,1,62,1,62,1,1,1,62,1,62,1,62,62,62,1,
62,1,62,1,1,62,62,1,1,62,1,62,62,62,62,1,
1,1,1,62,62,1,62,62,1,62,1,62,62,62,62,62,
1,62,1,1,1,1,62,62,1,1,62,62,62,62,62,62,
1,1,1,62,62,1,62,62,1,1,1,62,62,1,1,62,
1,1,62,62,1,62,62,1,62,1,62,1,62,62,1,62,
62,1,1,1,62,62,1,1,1,62,62,62,1,62,62,62,
62,62,1,62,62,1,1,62,62,1,1,1,62,62,62,62,
1,1,1,62,62,1,62,1,1,1,1,62,62,1,1,1
</chunk>
   <chunk x="0" y="0" width="16" height="16">
1,1,62,62,1,1,62,1,1,62,1,1,1,1,62,62,
62,1,1,62,62,1,1,1,1,1,62,62,62,1,62,62,
62,1,62,62,62,1,1,1,62,62,1,1,1,62,1,62,
1,1,1,1,1,1,62,62,62,1,1,1,1,62,1,1,
1,1,1,62,62,62,1,1,1,62,62,1,62,62,1,1,
62,1,62,1,1,1,62,1,62,62,1,1,1,62,62,62,
62,1,1,62,62,62,1,62,1,62,62,62,1,62,62,1,
62,62,62,1,62,62,62,62,62,1,1,1,62,1,62,62,
1,1,1,1,1,62,1,62,1,1,1,1,1,62,1,62,
62,1,62,1,1,1,1,62,1,62,1,62,1,62,1,62,
1,1,1,62,62,1,1,62,62,1,1,62,1,1,1,1,
62,62,62,1,62,1,62,62,62,62,62,1,1,1,62,1,
62,62,62,62,1,1,62,62,62,1,62,62,62,62,62,1,
62,62,62,62,62,62,62,1,1,62,1,1,62,62,1,62,
62,62,1,1,62,62,62,62,1,62,62,1,1,1,1,62,
62,1,1,1,62,62,1,1,62,62,1,1,62,1,62,1
</chunk>
   <chunk x="-16" y="16" width="16" height="16">
62,62,1,62,1,1,1,1,1,62,1,62,62,62,62,62,
62,1,62,62,1,62,1,62,62,62,1,62,62,62,1,62,
62,62,62,62,62,1,62,62,1,62,62,1,1,1,1,1,
1,1,62,62,1,1,1,62,62,62,1,62,1,1,1,62,
62,62,62,1,1,1,62,1,62,1,1,1,62,62,62,1,
62,1,1,62,62,62,62,1,62,62,62,1,62,62,62,62,
62,1,62,62,62,62,1,1,62,1,62,1,1,62,1,1,
62,1,62,62,62,1,62,62,1,1,1,1,62,62,62,1,
62,62,1,1,1,1,1,1,1,62,1,1,62,62,1,62,
62,1,1,1,62,1,1,62,62,1,62,62,1,62,1,62,
62,1,62,62,1,62,62,62,62,62,1,1,1,1,1,1,
62,62,1,1,1,1,62,62,62,62,1,1,62,1,1,62,
1,1,1,1,1,62,1,62,62,1,1,1,1,62,1,62,
62,1,1,1,62,62,1,1,1,62,1,62,1,1,62,1,
62,62,1,62,1,62,62,1,62,1,62,1,62,62,1,1,
1,62,1,62,1,62,1,1,1,62,1,62,1,1,1,1
</chunk>
   <chunk x="0" y="16" width="16" height="16">
62,1,62,1,1,62,62,62,1,1,62,1,1,1,1,62,
62,1,62,1,1,1,62,1,62,62,62,1,1,1,1,1,
1,62,62,1,62,62,62,1,62,1,1,1,62,62,1,1,
1,62,1,1,1,1,1,1,62,62,1,1,1,62,62,62,
62,1,62,62,1,62,1,62,62,1,62,1,1,1,62,62,
62,1,62,62,1,1,1,62,62,62,1,1,1,1,62,62,
62,1,1,1,1,62,1,62,62,1,1,1,62,62,1,1,
1,62,62,1,62,62,1,1,1,62,62,62,1,1,1,62,
62,62,62,1,1,1,1,1,62,62,62,62,62,1,1,1,
1,62,1,62,62,62,62,62,62,1,1,1,62,62,62,1,
1,62,62,1,1,62,62,1,62,1,1,1,1,62,1,62,
62,62,1,1,62,62,62,1,62,62,62,1,62,1,1,1,
1,1,1,1,62,1,1,1,1,62,62,62,1,62,62,62,
62,1,62,62,1,62,1,1,1,1,1,62,1,1,1,1,
1,62,1,1,62,62,1,62,1,62,62,1,1,62,62,1,
62,1,62,1,62,1,1,1,62,1,1,62,62,1,62,62
</chunk>
   <chunk x="-16" y="32" width="16" height="16">
62,1,1,62,62,62,62,1,62,62,1,1,62,1,62,1,
62,1,62,1,1,1,1,62,1,1,62,62,1,1,1,62,
3,3,4,1,62,62,1,1,1,1,62,1,1,1,1,62,
48,109,66,3,3,3,4,62,62,62,62,62,62,62,62,1,
109,48,48,48,109,109,66,3,0,3,4,62,1,62,1,62,
48,109,48,109,109,109,109,109,0,109,66,3,3,4,1,62,
109,109,48,109,48,109,109,109,0,48,109,48,48,66,3,3,
48,48,109,109,109,48,48,48,0,109,48,48,48,109,48,48,
125,125,6,48,109,48,48,48,0,109,48,109,48,48,48,109,
62,62,124,125,125,6,48,109,0,48,109,109,48,48,48,48,
62,62,1,1,62,124,125,125,0,125,6,109,109,109,48,48,
62,1,62,1,62,62,1,62,62,1,124,125,125,125,6,48,
1,1,62,1,1,1,62,62,62,1,1,62,62,1,124,125,
1,1,62,1,1,62,62,62,1,62,62,62,1,62,1,62,
1,1,62,1,62,62,1,62,1,62,62,62,62,1,62,62,
1,1,1,1,62,62,62,62,1,1,62,1,1,1,1,1
</chunk>
   <chunk x="0" y="32" width="16" height="16">
1,1,62,1,1,62,62,62,1,1,62,1,62,62,1,62,
1,62,62,1,62,62,1,1,1,62,1,62,1,1,62,1,
1,1,62,62,62,1,1,62,1,1,1,1,1,1,62,1,
1,1,1,62,1,62,62,62,62,1,1,62,62,62,1,1,
1,1,1,62,62,62,62,62,62,62,62,1,62,62,62,62,
1,1,1,1,62,1,1,1,1,62,62,1,1,1,1,62,
3,3,4,1,62,62,1,1,1,62,62,1,1,62,1,62,
109,48,66,3,3,3,3,4,62,62,1,1,62,62,62,1,
109,48,109,48,109,109,109,66,3,3,4,1,1,62,62,1,
48,48,48,109,109,48,109,48,48,109,66,3,3,4,1,1,
109,48,109,48,109,48,109,109,48,48,48,109,109,66,3,3,
48,48,109,48,109,109,109,48,109,109,48,109,109,109,48,48,
125,125,6,109,48,48,109,109,109,109,48,109,109,48,48,48,
1,1,124,125,125,125,6,48,109,48,109,109,109,48,48,109,
62,1,1,1,62,62,124,125,125,6,48,109,48,48,109,48,
1,62,1,62,62,62,62,62,1,124,125,125,6,48,109,48
</chunk>
  </data>
 </layer>
 <layer id="18" name="Ground Terrain:NoCollision" width="30" height="20">
  <data encoding="csv">
   <chunk x="-16" y="32" width="16" height="16">
0,0,0,0,0,0,0,0,0,0,0,0,0,0,0,0,
0,0,0,0,0,0,0,0,0,0,0,0,0,0,0,0,
0,0,0,0,0,0,0,0,0,0,0,0,0,0,0,0,
0,0,0,0,0,0,0,0,0,0,0,0,0,0,0,0,
0,0,0,0,0,0,0,0,3,0,0,0,0,0,0,0,
0,0,0,0,0,0,0,0,48,0,0,0,0,0,0,0,
0,0,0,0,0,0,0,0,48,0,0,0,0,0,0,0,
0,0,0,0,0,0,0,0,109,0,0,0,0,0,0,0,
0,0,0,0,0,0,0,0,48,0,0,0,0,0,0,0,
0,0,0,0,0,0,0,0,48,0,0,0,0,0,0,0,
0,0,0,0,0,0,0,0,125,0,0,0,0,0,0,0,
0,0,0,0,0,0,0,0,0,0,0,0,0,0,0,0,
0,0,0,0,0,0,0,0,0,0,0,0,0,0,0,0,
0,0,0,0,0,0,0,0,0,0,0,0,0,0,0,0,
0,0,0,0,0,0,0,0,0,0,0,0,0,0,0,0,
0,0,0,0,0,0,0,0,0,0,0,0,0,0,0,0
</chunk>
  </data>
 </layer>
 <layer id="6" name="Ground Decoration" width="30" height="20">
  <data encoding="csv">
   <chunk x="-16" y="-16" width="16" height="16">
0,0,0,0,0,0,0,0,0,0,0,0,0,0,0,0,
0,0,0,0,0,0,0,0,0,0,0,0,0,200,0,0,
0,0,0,0,0,0,0,0,0,0,0,0,0,0,0,0,
0,0,0,0,0,0,0,0,0,0,0,0,0,0,0,0,
0,0,0,0,0,0,0,0,0,0,0,0,0,0,0,0,
0,0,0,0,0,0,0,0,0,0,0,0,0,0,0,0,
0,0,0,0,0,0,0,0,0,0,0,0,0,0,0,0,
0,0,0,0,0,0,0,0,0,0,0,0,0,0,0,0,
0,0,0,0,0,0,0,0,0,0,0,0,0,0,0,0,
0,0,0,0,0,0,0,0,0,0,0,0,0,0,0,0,
0,0,0,0,0,0,0,0,0,0,0,0,0,0,0,0,
0,0,0,0,0,0,0,0,0,0,0,0,0,0,0,0,
0,0,0,0,0,0,0,0,0,0,0,0,0,0,0,0,
0,0,0,0,0,0,0,0,0,0,0,0,0,0,0,0,
0,0,0,0,0,0,0,0,0,0,0,0,0,0,0,0,
0,0,0,0,0,0,0,0,0,0,0,0,0,0,0,0
</chunk>
   <chunk x="0" y="-16" width="16" height="16">
139,0,0,0,0,0,0,0,0,0,0,0,0,0,0,0,
0,0,0,0,0,0,0,0,0,0,0,0,0,0,0,0,
0,0,0,0,0,0,0,0,0,0,0,0,0,0,0,0,
0,0,0,0,0,0,0,0,0,0,0,0,0,0,0,0,
0,0,0,0,0,0,0,0,0,0,0,0,0,0,0,0,
0,0,0,0,0,0,0,0,0,0,0,0,0,0,0,0,
0,0,0,0,0,0,0,0,0,0,0,0,0,0,0,0,
0,0,0,0,0,0,0,0,0,0,0,0,0,0,0,0,
0,0,0,0,0,0,0,0,0,0,0,0,0,0,0,0,
0,0,0,0,0,0,0,0,0,0,0,0,0,0,0,0,
0,0,0,0,0,0,0,0,0,0,0,0,0,0,0,0,
0,0,0,0,0,0,0,0,0,0,0,0,0,0,0,0,
0,0,0,0,0,0,0,0,0,0,0,0,0,0,0,0,
0,0,0,0,0,0,0,0,0,0,0,0,0,0,0,0,
0,0,0,0,0,0,0,0,0,0,0,0,0,0,0,0,
0,0,0,0,0,0,0,0,0,0,0,0,0,0,0,0
</chunk>
   <chunk x="0" y="0" width="16" height="16">
0,0,0,0,0,0,0,0,0,0,0,0,140,0,0,0,
0,0,0,0,0,0,0,0,0,0,200,0,0,0,0,0,
0,0,0,0,0,0,0,0,0,0,0,200,0,0,0,0,
0,0,0,0,0,0,0,0,0,0,0,0,0,0,0,0,
0,0,0,0,0,0,0,0,0,0,0,0,0,0,0,0,
0,0,0,0,0,0,0,0,0,0,0,0,0,0,0,0,
0,0,0,0,0,0,0,0,0,0,0,0,0,0,0,0,
0,0,0,0,0,0,0,0,0,0,0,0,0,0,0,0,
0,0,0,0,0,0,0,0,0,0,0,0,0,0,0,0,
0,0,0,0,0,0,0,0,0,0,0,0,0,0,0,0,
0,0,0,0,0,0,0,0,0,0,0,0,0,0,0,0,
0,0,0,0,0,0,0,0,0,0,0,0,0,0,0,0,
0,0,0,0,0,0,0,0,0,0,0,0,0,0,0,0,
0,0,0,0,0,0,0,0,0,0,0,0,0,0,0,0,
0,0,0,0,0,0,0,0,0,0,0,0,0,0,0,0,
0,0,0,0,0,0,0,0,0,0,0,0,0,0,0,0
</chunk>
  </data>
 </layer>
 <layer id="2" name="Ground Overlay" width="30" height="20">
  <data encoding="csv">
   <chunk x="0" y="-32" width="16" height="16">
0,0,0,0,0,0,0,0,0,0,0,0,0,0,0,0,
0,0,0,0,0,0,0,0,0,0,0,0,0,0,0,0,
0,0,0,0,0,0,0,0,0,0,0,0,0,0,0,0,
0,0,0,0,0,0,0,0,0,0,0,0,0,0,0,0,
0,0,0,0,0,0,0,0,0,0,0,0,0,0,0,0,
0,0,0,0,0,0,0,0,0,0,0,0,0,0,0,0,
0,0,0,0,0,0,0,0,0,0,0,0,0,0,0,0,
0,0,0,0,0,0,0,0,0,0,0,0,0,0,0,0,
0,0,0,0,0,0,0,0,0,0,0,0,0,0,0,0,
0,0,0,0,0,0,0,0,0,0,0,0,0,0,0,0,
0,0,0,0,0,0,0,0,0,0,0,0,0,0,0,0,
0,0,0,0,0,0,0,0,0,0,0,0,0,0,0,0,
0,0,0,0,0,0,0,0,0,0,0,0,0,0,0,0,
0,0,0,0,0,0,0,0,0,0,0,0,0,0,0,0,
0,0,0,0,0,0,0,0,0,0,0,0,0,0,0,0,
0,0,0,0,0,0,779,0,0,0,0,0,0,0,0,0
</chunk>
   <chunk x="-32" y="-16" width="16" height="16">
0,0,0,0,0,0,0,0,0,0,0,0,0,0,0,0,
0,0,0,0,0,0,0,0,0,0,0,0,0,0,0,0,
0,0,0,0,0,0,0,0,0,0,0,0,0,0,0,0,
0,0,0,0,0,0,0,0,0,0,0,0,0,0,0,0,
0,0,0,0,0,0,0,0,0,0,0,0,0,0,0,0,
0,0,0,0,0,0,0,0,0,0,0,0,0,0,0,0,
0,0,0,0,0,0,0,0,0,0,0,0,0,0,0,0,
0,0,0,0,0,0,0,0,0,0,0,0,0,0,0,0,
0,0,0,0,0,0,0,0,0,0,0,0,0,0,0,0,
0,0,0,0,0,0,0,0,0,0,0,0,0,0,0,0,
0,0,0,0,0,0,0,0,0,0,0,0,0,0,0,0,
0,0,0,0,0,0,0,0,0,0,0,0,0,0,0,778,
0,0,0,0,0,0,0,0,0,0,0,0,0,0,0,0,
0,0,0,0,0,0,0,0,0,0,0,0,0,0,0,0,
0,0,0,0,0,0,0,0,0,0,0,0,0,0,0,0,
0,0,0,0,0,0,0,0,0,0,0,0,0,0,0,0
</chunk>
   <chunk x="-16" y="-16" width="16" height="16">
0,0,0,0,0,0,0,0,0,0,0,0,0,0,0,0,
0,0,0,0,0,0,0,0,0,0,0,0,0,0,0,0,
0,0,0,0,0,0,0,0,0,0,0,0,0,0,778,537,
0,0,0,0,0,0,0,0,0,0,0,0,0,0,0,538,
0,0,0,0,0,0,0,0,0,0,0,0,0,0,0,538,
0,0,0,0,0,0,0,0,0,0,0,0,0,0,0,538,
0,0,0,0,0,0,0,0,0,0,0,0,0,0,0,538,
0,0,0,0,0,0,0,0,0,0,0,0,0,0,0,538,
0,0,0,0,0,0,0,0,0,0,0,0,0,0,0,538,
0,0,0,0,0,0,0,0,0,0,0,0,779,0,0,538,
0,0,0,0,536,599,599,599,599,599,599,599,596,599,534,598,
599,599,599,599,598,0,0,0,0,0,0,0,0,0,538,0,
0,0,0,0,0,0,0,0,0,0,0,0,0,0,538,0,
0,0,0,0,0,0,0,0,0,0,0,0,0,0,538,0,
0,0,0,0,0,0,0,0,0,0,0,0,0,0,595,599,
0,0,0,0,0,0,0,0,0,0,0,0,0,0,538,0
</chunk>
   <chunk x="0" y="-16" width="16" height="16">
0,0,0,0,0,0,538,0,0,0,0,0,0,0,0,0,
0,0,0,0,0,0,538,0,0,0,0,0,0,0,0,0,
0,0,0,0,0,0,538,0,0,0,0,0,0,0,0,0,
0,0,0,0,0,0,538,0,0,0,0,0,0,0,0,0,
0,0,0,0,0,0,538,0,0,0,0,0,0,0,0,0,
0,0,0,0,0,0,538,0,0,0,0,0,0,0,0,0,
0,0,0,0,0,0,538,0,0,0,0,0,0,0,0,0,
0,0,0,0,0,0,538,0,0,0,0,0,0,0,0,0,
0,0,0,0,0,0,538,0,0,0,0,0,0,0,0,0,
0,0,0,0,0,0,538,0,0,779,0,0,0,0,0,0,
0,0,0,0,0,0,538,0,0,538,0,0,0,0,0,0,
0,0,0,0,0,0,538,0,0,538,0,0,0,0,0,0,
0,0,0,0,0,0,538,0,0,538,0,0,0,0,0,0,
0,0,0,779,0,0,595,599,599,598,0,0,0,0,0,0,
599,599,599,596,599,599,535,0,0,0,0,0,0,0,0,0,
0,0,0,0,0,0,538,0,0,0,0,0,0,0,0,0
</chunk>
   <chunk x="-16" y="0" width="16" height="16">
0,0,0,0,0,0,0,0,0,0,0,0,0,0,538,0,
0,0,0,0,0,0,0,0,0,0,0,779,0,0,538,0,
0,0,0,0,0,0,0,0,0,0,0,538,0,0,538,0,
0,0,0,0,0,0,0,0,0,0,0,597,599,599,535,0,
0,0,0,0,0,0,0,0,0,0,0,0,0,0,538,0,
0,0,0,0,0,0,0,0,0,0,0,0,0,0,538,0,
0,0,0,0,0,0,0,0,0,0,0,0,0,0,538,0,
0,0,0,0,0,0,0,0,0,0,0,0,0,0,597,537,
0,0,0,0,0,0,0,0,0,0,0,0,0,0,0,538,
0,0,0,0,0,0,0,0,0,0,0,0,0,0,0,538,
0,0,0,0,0,0,0,0,0,0,0,0,0,0,0,538,
0,0,0,0,0,0,0,0,0,0,0,0,0,0,0,538,
0,0,0,0,0,0,0,0,0,0,0,0,0,0,0,538,
0,0,0,0,0,0,0,0,0,0,0,0,0,0,0,538,
0,0,0,0,0,0,0,0,0,0,0,0,0,0,0,538,
0,0,0,0,0,0,0,0,0,0,0,0,0,0,0,538
</chunk>
   <chunk x="0" y="0" width="16" height="16">
0,0,0,0,0,0,538,0,0,0,0,0,0,0,0,0,
0,0,0,0,0,0,538,0,0,0,0,0,0,0,0,0,
0,0,0,0,0,0,538,0,0,0,0,0,0,0,0,0,
0,0,0,0,0,0,597,599,599,599,840,0,0,0,0,0,
0,0,0,0,0,0,0,0,0,0,0,0,0,0,0,0,
0,0,0,0,0,0,0,0,0,0,0,0,0,0,0,0,
0,0,0,0,0,0,0,0,0,0,0,0,0,0,0,0,
0,0,0,0,0,0,0,0,0,0,0,0,0,0,0,0,
0,0,0,0,0,0,0,0,0,0,0,0,0,0,0,0,
0,0,0,0,0,0,0,0,0,0,0,0,0,0,0,0,
0,0,0,0,0,0,0,0,0,0,0,0,0,0,0,0,
0,0,0,0,0,0,0,0,0,0,0,0,0,0,0,0,
0,0,0,0,0,0,0,0,0,0,0,0,0,0,0,0,
0,0,0,0,0,0,0,0,0,0,0,0,0,0,0,0,
0,0,0,0,0,0,0,0,0,0,0,0,0,0,0,0,
0,0,0,0,0,0,0,0,0,0,0,0,0,0,0,0
</chunk>
   <chunk x="-16" y="16" width="16" height="16">
0,0,0,0,0,0,0,0,0,0,0,0,0,0,0,538,
0,0,0,0,0,0,0,0,0,0,0,0,0,0,0,538,
0,0,0,0,0,0,0,0,0,0,0,0,0,0,0,538,
0,0,0,0,0,0,0,0,0,0,0,0,0,0,0,538,
0,0,0,0,0,0,0,0,0,0,0,0,0,0,536,598,
0,0,0,0,0,0,0,0,0,0,0,0,0,0,538,0,
0,0,0,0,0,0,0,0,0,0,0,0,0,0,538,0,
0,0,0,0,0,0,0,0,0,0,0,0,0,0,538,0,
0,0,0,0,0,0,0,0,0,0,0,0,0,0,538,0,
0,0,0,0,0,0,0,0,0,0,0,0,0,536,598,0,
0,0,0,0,0,0,0,0,0,536,599,599,599,598,0,0,
0,0,0,0,0,0,0,0,536,598,0,0,0,0,0,0,
0,0,0,0,0,0,0,0,538,0,0,0,0,0,0,0,
0,0,0,0,0,0,0,0,538,0,0,0,0,0,0,0,
0,0,0,0,0,0,0,0,538,0,0,0,0,0,0,0,
0,0,0,0,0,0,0,0,538,0,0,0,0,0,0,0
</chunk>
   <chunk x="-16" y="32" width="16" height="16">
0,0,0,0,0,0,0,0,538,0,0,0,0,0,0,0,
0,0,0,0,0,0,0,0,538,0,0,0,0,0,0,0,
0,0,0,0,0,0,0,0,538,0,0,0,0,0,0,0,
0,0,0,0,0,0,0,0,538,0,0,0,0,0,0,0,
0,0,0,0,0,0,0,0,0,0,0,0,0,0,0,0,
0,0,0,0,0,0,0,0,0,0,0,0,0,0,0,0,
0,0,0,0,0,0,0,0,0,0,0,0,0,0,0,0,
0,0,0,0,0,0,0,0,0,0,0,0,0,0,0,0,
0,0,0,0,0,0,0,0,0,0,0,0,0,0,0,0,
0,0,0,0,0,0,0,0,0,0,0,0,0,0,0,0,
0,0,0,0,0,0,0,0,0,0,0,0,0,0,0,0,
0,0,0,0,0,0,0,0,538,0,0,0,0,0,0,0,
0,0,0,0,0,0,0,0,538,0,0,0,0,0,0,0,
0,0,0,0,0,0,0,536,598,0,0,0,0,0,0,0,
0,0,0,0,0,0,0,538,0,0,0,0,0,0,0,0,
0,0,0,0,0,0,0,538,0,0,0,0,0,0,0,0
</chunk>
   <chunk x="-16" y="48" width="16" height="16">
0,0,0,0,0,0,0,839,0,0,0,0,0,0,0,0,
0,0,0,0,0,0,0,0,0,0,0,0,0,0,0,0,
0,0,0,0,0,0,0,0,0,0,0,0,0,0,0,0,
0,0,0,0,0,0,0,0,0,0,0,0,0,0,0,0,
0,0,0,0,0,0,0,0,0,0,0,0,0,0,0,0,
0,0,0,0,0,0,0,0,0,0,0,0,0,0,0,0,
0,0,0,0,0,0,0,0,0,0,0,0,0,0,0,0,
0,0,0,0,0,0,0,0,0,0,0,0,0,0,0,0,
0,0,0,0,0,0,0,0,0,0,0,0,0,0,0,0,
0,0,0,0,0,0,0,0,0,0,0,0,0,0,0,0,
0,0,0,0,0,0,0,0,0,0,0,0,0,0,0,0,
0,0,0,0,0,0,0,0,0,0,0,0,0,0,0,0,
0,0,0,0,0,0,0,0,0,0,0,0,0,0,0,0,
0,0,0,0,0,0,0,0,0,0,0,0,0,0,0,0,
0,0,0,0,0,0,0,0,0,0,0,0,0,0,0,0,
0,0,0,0,0,0,0,0,0,0,0,0,0,0,0,0
</chunk>
  </data>
 </layer>
 <layer id="3" name="Below:0" width="30" height="20">
  <data encoding="csv">
   <chunk x="-16" y="-16" width="16" height="16">
0,570,0,570,0,570,0,570,0,570,0,0,0,0,631,821,
570,0,570,0,570,0,570,0,570,0,570,0,0,0,0,0,
0,570,0,570,0,570,0,570,0,570,0,0,570,0,0,0,
570,0,570,0,570,0,570,0,937,0,0,0,0,0,0,0,
0,570,0,570,0,570,0,0,0,0,0,0,821,0,0,0,
570,0,570,0,0,0,0,631,0,0,0,0,0,0,570,0,
0,0,0,0,0,0,0,0,0,0,0,0,0,0,0,0,
0,882,0,0,0,0,824,0,0,0,0,0,0,0,0,0,
0,0,0,570,0,0,0,0,0,1666,1667,1667,1667,1668,0,0,
0,0,0,0,0,570,0,0,0,1663,1662,1662,1662,1665,0,0,
0,0,882,0,0,0,0,0,0,0,0,0,0,0,0,0,
0,0,0,0,0,0,0,882,0,0,0,0,0,0,0,0,
0,0,0,0,0,0,0,0,0,0,0,0,0,0,0,0,
0,692,0,0,0,0,0,0,0,0,1666,1667,1668,0,0,885,
0,0,0,0,821,0,0,0,0,0,1666,1667,1668,0,0,0,
882,0,0,0,0,0,0,0,0,0,1666,1667,1668,0,0,0
</chunk>
   <chunk x="0" y="-16" width="16" height="16">
0,570,0,570,0,0,0,631,0,570,0,570,0,0,821,0,
0,0,570,0,570,0,0,0,570,0,570,0,570,0,0,0,
0,570,0,570,0,0,0,882,0,570,0,570,0,570,0,0,
0,0,570,0,570,0,0,0,570,0,570,0,570,0,0,0,
0,0,0,0,0,692,0,0,0,570,0,570,0,0,0,0,
0,882,0,0,0,0,0,0,570,0,0,0,0,824,0,0,
570,0,570,0,0,0,0,0,0,0,0,0,0,0,0,570,
0,570,0,570,0,0,0,0,0,0,0,0,0,0,0,0,
815,0,570,0,0,882,0,0,1666,1667,1667,0,0,0,0,0,
0,570,0,0,0,0,0,0,1663,1662,1662,0,0,0,0,0,
0,0,0,0,0,0,0,0,0,0,0,1666,1667,1668,0,0,
0,0,0,0,0,0,0,0,572,0,0,1663,1662,1665,0,631,
572,0,1666,1667,1667,1668,0,0,0,0,0,0,0,0,0,0,
0,0,1663,1662,1662,1665,0,0,0,0,0,0,0,0,0,0,
0,0,0,0,0,0,0,0,0,0,0,0,0,821,0,0,
0,0,0,0,0,0,0,0,0,0,0,0,0,0,0,0
</chunk>
   <chunk x="-16" y="0" width="16" height="16">
0,0,0,570,0,0,0,0,1666,1667,1667,1667,1668,0,0,0,
0,0,570,0,570,0,0,0,1663,1662,1662,1662,1665,3895,0,0,
0,0,0,570,0,0,0,0,0,821,0,0,0,0,0,0,
0,0,570,0,0,821,0,0,0,0,0,0,0,0,0,570,
0,0,0,570,0,0,0,0,0,0,0,0,0,0,0,0,
0,0,0,0,0,0,692,0,0,0,0,0,0,0,0,0,
0,885,0,0,0,0,0,0,0,821,0,0,0,0,0,0,
0,0,0,0,0,0,0,0,0,0,0,0,0,0,0,0,
0,0,0,0,0,0,0,0,570,0,0,0,0,0,882,0,
570,0,0,0,0,821,0,0,0,0,0,0,0,631,0,0,
0,570,0,570,0,0,0,0,0,0,0,0,0,0,0,0,
570,0,570,0,876,0,0,0,0,0,692,0,0,0,0,0,
0,570,0,570,0,0,0,0,0,0,0,882,0,0,0,0,
570,0,570,0,570,0,0,0,0,0,0,0,0,0,0,0,
0,570,0,570,0,570,0,570,0,570,0,0,0,882,0,0,
570,0,570,0,570,0,570,0,570,0,570,0,0,0,0,0
</chunk>
   <chunk x="0" y="0" width="16" height="16">
0,0,0,0,570,0,0,1666,1667,1668,0,0,0,0,0,0,
0,0,0,0,0,570,0,1663,1662,1665,0,0,0,0,570,0,
0,882,0,0,0,0,0,905,905,905,0,0,0,0,0,882,
0,0,0,0,0,0,0,0,0,0,0,0,0,0,0,0,
937,0,570,0,0,0,821,0,0,0,0,0,0,0,0,0,
0,0,0,0,0,0,0,0,0,0,0,882,0,0,0,0,
0,0,0,0,0,0,0,0,0,0,0,0,0,0,0,0,
0,0,0,0,0,0,0,0,0,0,0,0,0,0,0,0,
0,0,0,0,0,0,631,0,0,0,0,0,0,0,0,0,
0,0,0,823,0,0,0,0,0,0,0,0,0,0,821,0,
0,0,0,0,0,0,0,0,0,0,0,0,0,0,0,0,
0,0,0,0,0,0,0,0,0,882,0,0,0,0,0,0,
0,0,0,0,0,0,0,0,0,0,0,692,0,0,570,0,
0,0,0,821,0,0,0,0,0,0,0,0,0,570,0,570,
0,570,0,0,0,0,0,815,0,570,0,0,0,0,570,0,
0,0,0,0,0,0,570,0,570,0,570,0,0,570,0,570
</chunk>
   <chunk x="-16" y="16" width="16" height="16">
0,570,0,570,0,570,0,570,0,570,0,0,631,0,0,0,
0,0,0,692,570,0,570,0,570,0,570,0,0,0,0,0,
823,0,0,0,0,570,0,570,0,570,0,570,0,0,0,0,
0,0,0,0,570,0,570,0,570,0,570,0,0,0,0,0,
0,0,0,0,882,570,0,570,0,570,0,570,0,0,0,0,
570,0,0,0,0,0,0,0,570,0,570,0,0,0,0,0,
0,570,0,0,0,0,0,0,0,0,0,0,0,882,0,0,
570,0,0,0,0,0,0,0,0,0,0,0,0,0,0,0,
0,0,0,882,0,0,0,0,0,884,0,0,570,0,0,0,
0,0,0,0,0,0,0,0,0,0,0,0,0,0,0,0,
0,0,0,0,0,570,0,0,0,0,0,0,0,0,0,882,
0,0,631,0,570,0,570,0,0,0,0,0,0,0,0,0,
0,570,0,570,0,570,0,0,0,0,0,0,0,0,0,0,
570,0,570,0,570,0,570,0,0,0,0,0,570,0,0,0,
0,570,0,570,0,570,0,0,0,821,0,570,0,570,0,0,
0,882,0,0,570,0,570,0,0,0,570,0,570,0,570,0
</chunk>
   <chunk x="0" y="16" width="16" height="16">
0,0,0,0,0,570,0,570,0,570,0,570,0,0,570,0,
0,0,0,0,0,0,570,0,570,0,570,0,0,882,0,0,
0,0,0,0,0,631,0,0,0,0,0,0,0,0,0,0,
0,882,0,0,0,0,0,0,0,0,0,0,0,0,0,0,
0,0,0,0,0,0,0,0,824,0,0,0,0,0,0,0,
0,0,0,0,0,0,0,0,0,0,0,0,0,0,0,821,
0,0,0,0,0,0,0,0,0,0,0,0,570,0,0,0,
0,0,0,570,0,0,0,0,0,0,0,570,0,0,0,0,
0,0,570,0,570,0,0,0,0,0,0,0,0,0,0,0,
0,0,0,570,0,0,0,0,0,882,0,0,0,0,0,0,
0,0,0,0,570,0,0,0,0,0,0,0,0,0,0,0,
0,0,0,570,0,0,0,0,0,0,0,0,0,0,0,0,
0,0,0,0,631,0,0,0,0,0,0,0,0,0,0,0,
0,0,0,0,0,821,0,0,0,0,0,0,0,0,570,0,
631,0,0,0,0,0,0,0,0,0,0,0,821,0,0,0,
0,0,0,0,0,0,0,0,0,0,0,0,0,0,0,0
</chunk>
   <chunk x="-16" y="32" width="16" height="16">
0,0,0,0,0,570,0,0,0,0,0,570,0,570,0,0,
0,0,0,0,0,0,0,0,0,0,0,0,570,0,570,0,
0,0,0,692,0,821,0,0,0,0,0,815,0,570,0,570,
0,0,0,0,0,0,0,5006,0,5007,0,0,570,0,570,0,
0,0,0,0,0,0,0,5064,5069,5066,0,821,0,570,0,570,
0,0,0,0,0,0,0,5064,5069,5066,0,0,0,0,570,0,
0,0,0,0,0,0,0,5064,5069,5066,0,0,0,0,0,0,
0,0,0,0,0,0,0,5064,5069,5066,0,0,0,0,0,0,
0,0,0,0,0,0,0,5064,5069,5066,0,0,0,0,0,0,
570,0,0,0,0,0,0,5064,5069,5066,0,0,0,0,0,0,
0,570,0,570,0,0,0,5067,5069,5068,0,0,0,0,0,0,
570,0,570,0,570,0,570,5128,0,5129,0,0,0,0,0,0,
0,570,0,570,0,570,0,0,0,821,0,570,0,570,0,0,
821,0,570,0,570,0,0,0,0,0,570,0,570,0,570,0,
0,0,0,0,0,0,0,0,0,0,0,570,0,570,0,0,
0,0,0,0,0,821,0,0,0,0,0,0,570,0,570,0
</chunk>
   <chunk x="0" y="32" width="16" height="16">
0,885,0,0,0,0,0,0,0,0,570,0,0,0,0,0,
0,0,0,0,0,0,0,0,0,570,0,570,0,0,0,821,
0,0,0,0,0,0,0,0,0,0,570,0,570,0,0,0,
0,0,0,0,0,0,0,0,882,0,0,570,0,0,0,0,
0,0,0,0,0,0,0,0,0,0,570,0,570,0,0,0,
0,0,821,0,0,0,0,0,692,0,0,570,0,0,0,0,
0,0,0,0,0,0,0,0,0,0,0,0,0,884,0,0,
0,0,0,0,0,0,0,0,0,0,0,0,0,0,0,0,
0,0,0,0,0,0,0,0,0,0,0,0,0,0,0,570,
0,0,0,0,0,0,0,0,0,0,0,0,0,0,570,631,
0,0,0,0,0,0,0,0,0,0,0,0,0,0,0,0,
0,0,0,0,0,0,0,0,0,0,0,0,0,0,0,0,
0,0,0,0,0,0,0,0,0,0,0,0,0,0,0,0,
631,0,0,0,0,0,0,0,0,0,0,0,0,0,0,0,
0,0,0,0,0,823,0,0,0,0,0,0,0,0,0,0,
0,821,0,0,0,0,0,0,0,0,0,0,0,0,0,0
</chunk>
   <chunk x="-16" y="48" width="16" height="16">
0,0,0,0,0,0,0,0,0,0,0,570,0,570,0,0,
0,0,0,0,0,0,0,0,0,0,0,0,0,0,0,0,
0,0,0,0,0,0,0,0,0,0,0,0,0,0,0,0,
0,0,0,0,0,0,0,0,0,0,0,0,0,0,0,0,
0,0,0,0,0,0,0,0,0,0,0,0,0,0,0,0,
0,0,0,0,0,0,0,0,0,0,0,0,0,0,0,0,
0,0,0,0,0,0,0,0,0,0,0,0,0,0,0,0,
0,0,0,0,0,0,0,0,0,0,0,0,0,0,0,0,
0,0,0,0,0,0,0,0,0,0,0,0,0,0,0,0,
0,0,0,0,0,0,0,0,0,0,0,0,0,0,0,0,
0,0,0,0,0,0,0,0,0,0,0,0,0,0,0,0,
0,0,0,0,0,0,0,0,0,0,0,0,0,0,0,0,
0,0,0,0,0,0,0,0,0,0,0,0,0,0,0,0,
0,0,0,0,0,0,0,0,0,0,0,0,0,0,0,0,
0,0,0,0,0,0,0,0,0,0,0,0,0,0,0,0,
0,0,0,0,0,0,0,0,0,0,0,0,0,0,0,0
</chunk>
  </data>
 </layer>
 <layer id="8" name="BelowOffset:0" width="30" height="20" offsetx="0" offsety="8">
  <data encoding="csv">
   <chunk x="0" y="-16" width="16" height="16">
0,0,0,0,0,0,0,0,0,0,0,0,0,0,0,0,
0,0,0,0,0,0,0,0,0,0,0,0,0,0,0,0,
0,0,0,0,0,0,0,0,0,0,0,0,0,0,0,0,
0,0,0,0,0,0,0,0,0,0,0,0,0,0,0,0,
0,0,0,0,0,0,0,0,0,0,0,0,0,0,0,0,
0,0,0,0,0,0,0,0,0,0,0,0,0,0,0,0,
0,0,0,0,0,0,0,0,0,0,0,0,0,0,0,0,
0,0,0,0,0,0,0,0,0,0,0,0,0,0,0,0,
0,0,0,0,0,0,0,0,0,0,0,0,0,0,0,0,
0,0,0,0,0,0,0,0,0,0,0,0,0,0,0,0,
0,0,0,0,0,0,0,0,0,0,0,0,0,0,0,0,
0,0,0,0,0,0,0,0,0,0,0,753,754,755,0,0,
0,0,0,0,0,0,0,0,0,0,0,0,0,0,0,0,
0,0,0,0,0,0,0,0,0,0,0,0,0,0,0,0,
0,0,0,0,0,0,0,0,0,0,0,0,0,0,0,0,
0,0,0,0,0,0,0,0,0,0,0,0,0,0,0,0
</chunk>
  </data>
 </layer>
 <layer id="4" name="Below:1" width="30" height="20">
  <data encoding="csv">
   <chunk x="-16" y="-32" width="16" height="16">
0,0,0,0,0,0,0,0,0,0,0,0,0,0,0,0,
0,0,0,0,0,0,0,0,0,0,0,0,0,0,0,0,
0,0,0,0,0,0,0,0,0,0,0,0,0,0,0,0,
0,0,0,0,0,0,0,0,0,0,0,0,0,0,0,0,
0,0,0,0,0,0,0,0,0,0,0,0,0,0,0,0,
0,0,0,0,0,0,0,0,0,0,0,0,0,0,0,0,
0,0,0,0,0,0,0,0,0,0,0,0,0,0,0,0,
0,0,0,0,0,0,0,0,0,0,0,0,0,0,0,0,
0,0,0,0,0,0,0,0,0,0,0,0,0,0,0,0,
0,0,0,0,0,0,0,0,0,0,0,0,0,0,0,0,
0,0,0,0,0,0,0,0,0,0,0,0,0,0,0,0,
0,0,0,0,0,0,0,0,0,0,0,0,0,0,0,0,
0,0,0,0,0,0,0,0,0,0,0,0,0,0,0,0,
0,0,0,0,0,0,0,0,0,0,0,0,0,0,0,0,
0,0,0,0,0,0,0,0,0,0,0,0,0,0,0,0,
0,509,0,509,0,509,0,509,0,509,0,0,0,0,0,0
</chunk>
   <chunk x="0" y="-32" width="16" height="16">
0,0,0,0,0,0,0,0,0,0,0,0,0,0,0,0,
0,0,0,0,0,0,0,0,0,0,0,0,0,0,0,0,
0,0,0,0,0,0,0,0,0,0,0,0,0,0,0,0,
0,0,0,0,0,0,0,0,0,0,0,0,0,0,0,0,
0,0,0,0,0,0,0,0,0,0,0,0,0,0,0,0,
0,0,0,0,0,0,0,0,0,0,0,0,0,0,0,0,
0,0,0,0,0,0,0,0,0,0,0,0,0,0,0,0,
0,0,0,0,0,0,0,0,0,0,0,0,0,0,0,0,
0,0,0,0,0,0,0,0,0,0,0,0,0,0,0,0,
0,0,0,0,0,0,0,0,0,0,0,0,0,0,0,0,
0,0,0,0,0,0,0,0,0,0,0,0,0,0,0,0,
0,0,0,0,0,0,0,0,0,0,0,0,0,0,0,0,
0,0,0,0,0,0,0,0,0,0,0,0,0,0,0,0,
0,0,0,0,0,0,0,0,0,0,0,0,0,0,0,0,
0,0,0,0,0,0,0,0,0,0,0,0,0,0,0,0,
0,509,0,509,0,0,0,0,0,509,0,509,0,0,0,0
</chunk>
   <chunk x="-16" y="-16" width="16" height="16">
509,0,509,0,509,0,509,0,509,0,509,0,0,0,0,0,
0,509,0,509,0,509,0,509,0,509,0,0,509,0,0,0,
509,0,509,0,509,0,509,0,0,0,0,0,0,0,0,0,
0,509,0,509,0,509,0,0,0,0,0,0,0,0,0,0,
509,0,509,0,0,0,0,0,0,0,0,0,0,0,509,0,
0,0,0,0,0,0,0,0,0,0,0,0,0,0,0,0,
0,0,0,0,0,0,0,0,0,0,0,0,0,0,0,0,
0,0,0,509,0,0,0,0,0,0,0,0,0,0,0,0,
0,0,0,0,0,509,0,0,0,0,0,0,0,0,0,0,
0,0,0,0,0,0,0,0,0,0,0,0,2983,0,0,0,
0,0,0,0,0,0,0,0,0,0,0,0,0,0,0,0,
0,0,0,0,0,0,0,0,0,0,0,0,0,0,0,0,
0,0,0,0,0,0,0,0,0,0,0,0,0,0,0,0,
0,0,0,0,0,0,0,0,0,0,0,0,0,0,0,0,
0,0,0,0,0,0,0,0,0,0,0,3727,0,0,0,0,
0,0,0,509,0,0,0,0,0,0,0,3788,0,0,0,0
</chunk>
   <chunk x="0" y="-16" width="16" height="16">
0,0,509,0,509,0,0,0,509,0,509,0,509,0,0,0,
0,509,0,509,0,0,0,0,0,509,0,509,0,509,0,0,
0,0,509,0,509,0,0,0,509,0,509,0,509,0,0,0,
0,0,0,0,0,0,0,0,0,509,0,509,0,0,0,0,
0,0,0,0,0,0,0,0,509,0,0,0,0,0,0,0,
509,0,509,0,0,0,0,0,0,0,0,0,0,0,0,509,
0,509,0,509,0,0,0,0,0,0,0,0,0,0,0,0,
0,0,509,0,0,0,0,0,0,0,0,0,0,0,0,0,
0,509,0,0,0,0,0,0,0,0,0,0,0,0,0,0,
0,0,0,0,0,0,0,0,0,2983,0,0,0,0,0,0,
0,0,0,0,0,0,0,0,511,0,0,0,0,0,0,0,
511,0,0,0,0,0,0,0,0,0,0,0,0,0,0,0,
0,0,0,0,0,0,0,0,0,0,0,0,0,0,0,0,
0,0,0,2983,3911,0,0,0,0,0,0,0,0,0,0,0,
0,0,0,0,0,0,0,0,0,0,0,0,0,0,0,0,
0,0,0,0,509,0,0,0,0,0,0,0,0,0,0,0
</chunk>
   <chunk x="-16" y="0" width="16" height="16">
0,0,509,0,509,0,0,0,0,0,0,0,0,0,0,0,
0,0,0,509,0,0,0,0,0,0,0,2983,0,0,0,0,
0,0,509,0,0,0,0,0,0,0,0,0,0,0,0,509,
0,0,0,509,0,0,0,0,0,0,0,0,0,0,0,0,
0,0,0,0,0,0,0,0,0,0,0,0,0,0,0,0,
0,0,0,0,0,0,0,0,0,0,0,0,0,0,0,0,
0,0,0,0,0,0,0,0,0,0,0,0,0,0,0,0,
0,0,0,0,0,0,0,0,509,0,0,0,0,0,0,0,
509,0,0,0,0,0,0,0,0,0,0,0,0,0,0,0,
0,509,0,509,0,0,0,0,0,0,0,0,0,0,0,0,
509,0,509,0,0,0,0,0,0,0,0,0,0,0,0,0,
0,509,0,509,0,0,0,0,0,0,0,0,0,0,0,0,
509,0,509,0,509,0,0,0,0,0,0,0,0,0,0,0,
0,509,0,509,0,509,0,509,0,509,0,0,0,0,0,0,
509,0,509,0,509,0,509,0,509,0,509,0,0,0,0,0,
0,509,0,509,0,509,0,509,0,509,0,0,0,0,0,0
</chunk>
   <chunk x="0" y="0" width="16" height="16">
0,0,0,0,0,509,0,0,4194,0,0,0,0,0,509,0,
0,0,0,0,0,0,0,0,4255,0,0,0,0,0,0,0,
0,0,0,0,0,0,0,0,0,0,0,0,0,0,0,0,
0,0,509,0,0,0,0,0,0,0,0,0,0,0,0,0,
0,0,0,0,0,0,0,0,0,0,0,0,0,0,0,0,
0,0,0,0,0,0,0,0,0,0,0,0,0,0,0,0,
0,0,0,0,0,0,0,0,0,0,0,0,0,0,0,0,
0,0,0,0,0,0,0,0,0,0,0,0,0,0,0,0,
0,0,0,0,0,0,0,0,0,0,0,0,0,0,0,0,
0,0,0,0,0,0,0,0,0,0,0,0,0,0,0,0,
0,0,0,0,0,0,0,0,0,0,0,0,0,0,0,0,
0,0,0,0,0,0,0,0,0,0,0,0,0,0,509,0,
0,0,0,0,0,0,0,0,0,0,0,0,0,509,0,509,
0,509,0,0,0,0,0,0,0,509,0,0,0,0,509,0,
0,0,0,0,0,0,509,0,509,0,509,0,0,509,0,509,
0,0,0,0,0,509,0,509,0,509,0,509,0,0,509,0
</chunk>
   <chunk x="-16" y="16" width="16" height="16">
0,0,0,0,509,0,509,0,509,0,509,0,0,0,0,0,
0,0,0,0,0,509,0,509,0,509,0,509,0,0,0,0,
0,0,0,0,509,0,509,0,509,0,509,0,0,0,0,0,
0,0,0,0,0,509,0,509,0,509,0,509,0,0,0,0,
509,0,0,0,0,0,0,0,509,0,509,0,0,0,0,0,
0,509,0,0,0,0,0,0,0,0,0,0,0,0,0,0,
509,0,0,0,0,0,0,0,0,0,0,0,0,0,0,0,
0,0,0,0,0,0,0,0,0,0,0,0,509,0,0,0,
0,0,0,0,0,0,0,0,0,0,0,0,0,0,0,0,
0,0,0,0,0,509,0,0,0,0,0,0,0,0,0,0,
0,0,0,0,509,0,509,0,0,0,0,0,0,0,0,0,
0,509,0,509,0,509,0,0,0,0,0,0,0,0,0,0,
509,0,509,0,509,0,509,0,0,0,0,0,509,0,0,0,
0,509,0,509,0,509,0,0,0,0,0,509,0,509,0,0,
0,0,0,0,509,0,509,0,0,0,509,0,509,0,509,0,
0,0,0,0,0,509,0,0,0,0,0,509,0,509,0,0
</chunk>
   <chunk x="0" y="16" width="16" height="16">
0,0,0,0,0,0,509,0,509,0,509,0,0,0,0,0,
0,0,0,0,0,0,0,0,0,0,0,0,0,0,0,0,
0,0,0,0,0,0,0,0,0,0,0,0,0,0,0,0,
0,0,0,0,0,0,0,0,0,0,0,0,0,0,0,0,
0,0,0,0,0,0,0,0,0,0,0,0,0,0,0,0,
0,0,0,0,0,0,0,0,0,0,0,0,509,0,0,0,
0,0,0,509,0,0,0,0,0,0,0,509,0,0,0,0,
0,0,509,0,509,0,0,0,0,0,0,0,0,0,0,0,
0,0,0,509,0,0,0,0,0,0,0,0,0,0,0,0,
0,0,0,0,509,0,0,0,0,0,0,0,0,0,0,0,
0,0,0,509,0,0,0,0,0,0,0,0,0,0,0,0,
0,0,0,0,0,0,0,0,0,0,0,0,0,0,0,0,
0,0,0,0,0,0,0,0,0,0,0,0,0,0,509,0,
0,0,0,0,0,0,0,0,0,0,0,0,0,0,0,0,
0,0,0,0,0,0,0,0,0,0,0,0,0,0,0,0,
0,0,0,0,0,0,0,0,0,0,509,0,0,0,0,0
</chunk>
   <chunk x="-16" y="32" width="16" height="16">
0,0,0,0,0,0,0,0,0,0,0,0,509,0,509,0,
0,0,0,0,0,0,0,0,0,0,0,0,0,509,0,509,
0,0,0,0,0,0,0,0,0,0,0,0,509,0,509,0,
0,0,0,0,0,0,0,0,0,0,0,0,0,509,0,509,
0,0,0,0,0,0,0,0,0,0,0,0,0,0,509,0,
0,0,0,0,0,0,0,0,0,0,0,0,0,0,0,0,
0,0,0,0,0,0,0,0,0,0,0,0,0,0,0,0,
0,0,0,0,0,0,0,0,0,0,0,0,0,0,0,0,
509,0,0,0,0,0,0,0,0,0,0,0,0,0,0,0,
0,509,0,509,0,0,0,0,0,0,0,0,0,0,0,0,
509,0,509,0,509,0,509,0,0,0,0,0,0,0,0,0,
0,509,0,509,0,509,0,0,0,0,0,509,0,509,0,0,
0,0,509,0,509,0,0,0,0,0,509,0,509,0,509,0,
0,0,0,0,0,0,0,0,0,0,0,509,0,509,0,0,
0,0,0,0,0,0,0,0,0,0,0,0,509,0,509,0,
0,0,0,0,0,0,0,0,0,0,0,509,0,509,0,0
</chunk>
   <chunk x="0" y="32" width="16" height="16">
0,0,0,0,0,0,0,0,0,509,0,509,0,0,0,0,
0,0,0,0,0,0,0,0,0,0,509,0,509,0,0,0,
0,0,0,0,0,0,0,0,0,0,0,509,0,0,0,0,
0,0,0,0,0,0,0,0,0,0,509,0,509,0,0,0,
0,0,0,0,0,0,0,0,0,0,0,509,0,0,0,0,
0,0,0,0,0,0,0,0,0,0,0,0,0,0,0,0,
0,0,0,0,0,0,0,0,0,0,0,0,0,0,0,0,
0,0,0,0,0,0,0,0,0,0,0,0,0,0,0,509,
0,0,0,0,0,0,0,0,0,0,0,0,0,0,509,0,
0,0,0,0,0,0,0,0,0,0,0,0,0,0,0,0,
0,0,0,0,0,0,0,0,0,0,0,0,0,0,0,0,
0,0,0,0,0,0,0,0,0,0,0,0,0,0,0,0,
0,0,0,0,0,0,0,0,0,0,0,0,0,0,0,0,
0,0,0,0,0,0,0,0,0,0,0,0,0,0,0,0,
0,0,0,0,0,0,0,0,0,0,0,0,0,0,0,0,
0,0,0,0,0,0,0,0,0,0,0,0,0,0,0,0
</chunk>
  </data>
 </layer>
 <layer id="7" name="BelowOffset:1" width="30" height="20" offsetx="0" offsety="8">
  <data encoding="csv">
   <chunk x="-16" y="-16" width="16" height="16">
0,0,0,0,0,0,0,0,0,0,0,0,0,0,0,0,
0,0,0,0,0,0,0,0,0,0,0,0,0,0,0,0,
0,0,0,0,0,0,0,0,0,0,0,0,0,0,0,0,
0,0,0,0,0,0,0,0,0,0,0,0,0,0,0,0,
0,0,0,0,0,0,0,0,0,0,0,0,0,0,0,0,
0,0,0,0,0,0,0,0,0,0,0,0,0,0,0,0,
0,0,0,0,0,0,0,0,0,0,0,0,0,0,0,0,
0,0,0,0,0,0,0,0,0,0,0,0,0,0,0,0,
0,0,0,0,0,0,0,0,0,0,3605,0,0,0,0,0,
0,0,0,0,0,0,0,0,0,0,0,0,0,0,0,0,
0,0,0,0,0,0,0,0,0,0,0,0,0,0,0,0,
0,0,0,0,0,0,0,0,0,0,0,0,0,0,0,0,
0,0,0,0,0,0,0,0,0,0,0,0,0,0,0,0,
0,0,0,0,0,0,0,0,0,0,0,0,0,0,0,0,
0,0,0,0,0,0,0,0,0,0,0,0,0,0,0,0,
0,0,0,0,0,0,0,0,0,0,0,0,0,0,0,0
</chunk>
   <chunk x="0" y="-16" width="16" height="16">
0,0,0,0,0,0,0,0,0,0,0,0,0,0,0,0,
0,0,0,0,0,0,0,0,0,0,0,0,0,0,0,0,
0,0,0,0,0,0,0,0,0,0,0,0,0,0,0,0,
0,0,0,0,0,0,0,0,0,0,0,0,0,0,0,0,
0,0,0,0,0,0,0,0,0,0,0,0,0,0,0,0,
0,0,0,0,0,0,0,0,0,0,0,0,0,0,0,0,
0,0,0,0,0,0,0,0,0,0,0,0,0,0,0,0,
0,0,0,0,0,0,0,0,0,0,0,0,0,0,0,0,
0,0,0,0,0,0,0,0,0,0,0,0,0,0,0,0,
0,0,0,0,0,0,0,0,0,0,0,0,0,0,0,0,
0,0,0,0,0,0,0,0,0,0,0,0,3607,0,0,0,
0,0,0,0,0,0,0,0,0,0,0,0,0,0,0,0,
0,0,0,0,0,0,0,0,0,0,0,0,0,0,0,0,
0,0,0,0,0,0,0,0,0,0,0,0,0,0,0,0,
0,0,0,0,0,0,0,0,0,0,0,0,0,0,0,0,
0,0,0,0,0,0,0,0,0,0,0,0,0,0,0,0
</chunk>
   <chunk x="-16" y="0" width="16" height="16">
0,0,0,0,0,0,0,0,0,3971,0,0,3701,0,0,0,
0,0,0,0,0,0,0,0,0,0,633,0,631,0,0,0,
0,0,0,0,0,0,0,0,0,0,0,0,0,0,0,0,
0,0,0,0,0,0,0,0,0,0,0,0,0,0,0,0,
0,0,0,0,0,0,0,0,0,0,0,0,0,0,0,0,
0,0,0,0,0,0,0,0,0,0,0,0,0,0,0,0,
0,0,0,0,0,0,0,0,0,0,0,0,0,0,0,0,
0,0,0,0,0,0,0,0,0,0,0,0,0,0,0,0,
0,0,0,0,0,0,0,0,0,0,0,0,0,0,0,0,
0,0,0,0,0,0,0,0,0,0,0,0,0,0,0,0,
0,0,0,0,0,0,0,0,0,0,0,0,0,0,0,0,
0,0,0,0,0,0,0,0,0,0,0,0,0,0,0,0,
0,0,0,0,0,0,0,0,0,0,0,0,0,0,0,0,
0,0,0,0,0,0,0,0,0,0,0,0,0,0,0,0,
0,0,0,0,0,0,0,0,0,0,0,0,0,0,0,0,
0,0,0,0,0,0,0,0,0,0,0,0,0,0,0,0
</chunk>
   <chunk x="0" y="0" width="16" height="16">
0,0,0,0,0,0,0,0,0,0,0,0,0,0,0,0,
0,0,0,0,0,0,0,3951,0,0,0,0,0,0,0,0,
0,0,0,0,0,0,0,0,0,0,0,0,0,0,0,0,
0,0,0,0,0,0,0,0,0,0,0,0,0,0,0,0,
0,0,0,0,0,0,0,0,0,0,0,0,0,0,0,0,
0,0,0,0,0,0,0,0,0,0,0,0,0,0,0,0,
0,0,0,0,0,0,0,0,0,0,0,0,0,0,0,0,
0,0,0,0,0,0,0,0,0,0,0,0,0,0,0,0,
0,0,0,0,0,0,0,0,0,0,0,0,0,0,0,0,
0,0,0,0,0,0,0,0,0,0,0,0,0,0,0,0,
0,0,0,0,0,0,0,0,0,0,0,0,0,0,0,0,
0,0,0,0,0,0,0,0,0,0,0,0,0,0,0,0,
0,0,0,0,0,0,0,0,0,0,0,0,0,0,0,0,
0,0,0,0,0,0,0,0,0,0,0,0,0,0,0,0,
0,0,0,0,0,0,0,0,0,0,0,0,0,0,0,0,
0,0,0,0,0,0,0,0,0,0,0,0,0,0,0,0
</chunk>
  </data>
 </layer>
 <layer id="5" name="Above" width="30" height="20">
  <data encoding="csv">
   <chunk x="-16" y="-16" width="16" height="16">
0,0,0,0,0,0,0,0,0,0,0,0,0,0,0,0,
0,0,0,0,0,0,0,0,0,0,0,0,0,0,0,0,
0,0,0,0,0,0,0,0,0,0,0,0,0,0,0,0,
0,0,0,0,0,0,0,0,0,0,0,0,0,0,0,0,
0,0,0,0,0,0,0,0,0,0,0,0,0,0,0,0,
0,0,0,0,0,0,0,0,0,0,0,0,0,0,0,0,
0,0,0,0,0,0,0,0,0,2075,2076,2076,2076,2077,0,0,
0,0,0,0,0,0,0,0,0,2136,2137,2137,2137,2138,0,0,
0,0,0,0,0,0,0,0,0,2139,2140,2140,2140,2141,0,0,
0,0,0,0,0,0,0,0,0,0,0,0,0,0,0,0,
0,0,0,0,0,0,0,0,0,0,0,0,0,0,0,0,
0,0,0,0,0,0,0,0,0,0,2258,2076,2263,0,0,0,
0,0,0,0,0,0,0,0,0,0,2380,2137,2138,0,0,0,
0,0,0,0,0,0,0,0,0,0,2441,2201,2446,0,0,0,
0,0,0,0,0,0,0,0,2075,2076,0,0,0,0,0,0,
0,0,0,0,0,0,0,0,2197,2198,0,0,0,0,0,0
</chunk>
   <chunk x="0" y="-16" width="16" height="16">
0,0,0,0,0,0,0,0,0,0,0,0,0,0,0,0,
0,0,0,0,0,0,0,0,0,0,0,0,0,0,0,0,
0,0,0,0,0,0,0,0,0,0,0,0,0,0,0,0,
0,0,0,0,0,0,0,0,0,0,0,0,0,0,0,0,
0,0,0,0,0,0,0,0,0,0,0,0,0,0,0,0,
0,0,0,0,0,0,0,0,0,0,0,0,0,0,0,0,
0,0,0,0,0,0,0,0,0,0,0,2258,2076,2263,0,0,
0,0,0,0,0,0,0,0,2075,2076,2076,2380,2137,2138,0,0,
0,0,0,0,0,0,0,0,2197,2198,2198,2380,2137,2138,0,0,
0,0,0,0,0,0,0,0,0,0,0,2380,2137,2138,0,0,
0,0,2258,2076,2076,2263,0,0,0,0,0,2441,2201,2446,0,0,
0,0,2380,2137,2137,2138,0,0,0,0,0,0,0,0,0,0,
0,0,2441,2201,2201,2446,0,0,0,0,0,0,0,0,0,0,
0,0,0,0,0,0,0,0,0,0,0,0,0,0,0,0,
0,0,0,0,0,0,0,2075,2076,2077,0,0,0,0,0,0,
0,0,0,0,0,0,0,2197,2198,2199,0,0,0,0,0,0
</chunk>
   <chunk x="0" y="0" width="16" height="16">
0,0,0,0,0,0,0,0,0,0,3831,0,0,0,0,0,
0,0,0,0,0,0,0,0,0,0,0,0,0,0,0,0,
0,0,0,0,0,0,0,0,0,0,0,0,0,0,0,0,
0,0,0,0,0,0,0,0,0,0,0,0,0,0,0,0,
0,0,0,0,0,0,0,0,0,0,0,0,0,0,0,0,
0,0,0,0,0,0,0,0,0,0,0,0,0,0,0,0,
0,0,0,0,0,0,0,0,0,0,0,0,0,0,0,0,
0,0,0,0,0,0,0,0,0,0,0,0,0,0,0,0,
0,0,0,0,0,0,0,0,0,0,0,0,0,0,0,0,
0,0,0,0,0,0,0,0,0,0,0,0,0,0,0,0,
0,0,0,0,0,0,0,0,0,0,0,0,0,0,0,0,
0,0,0,0,0,0,0,0,0,0,0,0,0,0,0,0,
0,0,0,0,0,0,0,0,0,0,0,0,0,0,0,0,
0,0,0,0,0,0,0,0,0,0,0,0,0,0,0,0,
0,0,0,0,0,0,0,0,0,0,0,0,0,0,0,0,
0,0,0,0,0,0,0,0,0,0,0,0,0,0,0,0
</chunk>
  </data>
 </layer>
 <layer id="10" name="AboveOffset" width="30" height="20" offsetx="0" offsety="8">
  <data encoding="csv">
   <chunk x="-16" y="-16" width="16" height="16">
0,0,0,0,0,0,0,0,0,0,0,0,0,0,0,0,
0,0,0,0,0,0,0,0,0,0,0,0,0,0,0,0,
0,0,0,0,0,0,0,0,0,0,0,0,0,0,0,0,
0,0,0,0,0,0,0,0,0,0,0,0,0,0,0,0,
0,0,0,0,0,0,0,0,0,0,0,0,0,0,0,0,
0,0,0,0,0,0,0,0,0,0,0,0,0,0,0,0,
0,0,0,0,0,0,0,0,0,0,0,0,0,0,0,0,
0,0,0,0,0,0,0,0,0,0,0,0,0,0,0,0,
0,0,0,0,0,0,0,0,0,0,0,0,0,0,0,0,
0,0,0,0,0,0,0,0,0,0,0,0,0,0,0,0,
0,0,0,0,0,0,0,0,0,0,0,0,0,0,0,0,
0,0,0,0,0,0,0,0,0,0,0,4075,0,0,0,0,
0,0,0,0,0,0,0,0,0,0,0,0,0,0,0,0,
0,0,0,0,0,0,0,0,0,0,0,0,0,0,0,0,
0,0,0,0,0,0,0,0,0,0,0,0,0,0,0,0,
0,0,0,0,0,0,0,0,0,0,0,0,0,0,0,0
</chunk>
  </data>
 </layer>
 <layer id="11" name="Above1" width="30" height="20">
  <data encoding="csv">
   <chunk x="0" y="-16" width="16" height="16">
0,0,0,0,0,0,0,0,0,0,0,0,0,0,0,0,
0,0,0,0,0,0,0,0,0,0,0,0,0,0,0,0,
0,0,0,0,0,0,0,0,0,0,0,0,0,0,0,0,
0,0,0,0,0,0,0,0,0,0,0,0,0,0,0,0,
0,0,0,0,0,0,0,0,0,0,0,0,0,0,0,0,
0,0,0,0,0,0,0,0,0,0,0,0,0,0,0,0,
0,0,0,0,0,0,0,0,0,0,0,0,0,0,0,0,
0,0,0,0,0,0,0,0,0,0,0,0,0,0,0,0,
0,0,0,0,0,0,0,0,0,0,0,0,0,0,0,0,
0,0,0,0,0,0,0,0,0,0,0,0,0,0,0,0,
0,0,0,0,0,0,0,0,0,0,0,0,0,0,0,0,
0,0,0,0,0,2019,0,0,0,0,0,0,0,0,0,0,
0,0,0,0,0,0,0,0,0,0,0,0,0,0,0,0,
0,0,0,0,0,0,0,0,0,0,0,0,0,0,0,0,
0,0,0,0,0,0,0,0,0,0,0,0,0,0,0,0,
0,0,0,0,0,0,0,0,0,0,0,0,0,0,0,0
</chunk>
  </data>
 </layer>
 <layer id="12" name="Collision:0" width="30" height="20" visible="0">
  <data encoding="csv">
   <chunk x="-16" y="-32" width="16" height="16">
0,0,0,0,0,0,0,0,0,0,0,0,0,0,0,0,
0,0,0,0,0,0,0,0,0,0,0,0,0,0,0,0,
0,0,0,0,0,0,0,0,0,0,0,0,0,0,0,0,
0,0,0,0,0,0,0,0,0,0,0,0,0,0,0,0,
0,0,0,0,0,0,0,0,0,0,0,0,0,0,0,0,
0,0,0,0,0,0,0,0,0,0,0,0,0,0,0,0,
0,0,0,0,0,0,0,0,0,0,0,0,0,0,0,0,
0,0,0,0,0,0,0,0,0,0,0,0,0,0,0,0,
0,0,0,0,0,0,0,0,0,0,0,0,0,0,0,0,
0,0,0,0,0,0,0,0,0,0,0,0,0,0,0,0,
0,0,0,0,0,0,0,0,0,0,0,0,0,0,0,0,
0,0,0,0,0,0,0,0,0,0,0,0,0,0,0,0,
0,0,0,0,0,0,0,0,0,0,0,0,0,0,0,0,
0,0,0,0,0,0,0,0,0,0,0,0,0,0,0,0,
0,0,0,0,0,0,0,0,0,0,0,0,0,0,0,0,
5027,5027,5027,5027,5027,5027,5027,5027,5027,5027,5027,5027,5027,5027,5027,5027
</chunk>
   <chunk x="0" y="-32" width="16" height="16">
0,0,0,0,0,0,0,0,0,0,0,0,0,0,0,0,
0,0,0,0,0,0,0,0,0,0,0,0,0,0,0,0,
0,0,0,0,0,0,0,0,0,0,0,0,0,0,0,0,
0,0,0,0,0,0,0,0,0,0,0,0,0,0,0,0,
0,0,0,0,0,0,0,0,0,0,0,0,0,0,0,0,
0,0,0,0,0,0,0,0,0,0,0,0,0,0,0,0,
0,0,0,0,0,0,0,0,0,0,0,0,0,0,0,0,
0,0,0,0,0,0,0,0,0,0,0,0,0,0,0,0,
0,0,0,0,0,0,0,0,0,0,0,0,0,0,0,0,
0,0,0,0,0,0,0,0,0,0,0,0,0,0,0,0,
0,0,0,0,0,0,0,0,0,0,0,0,0,0,0,0,
0,0,0,0,0,0,0,0,0,0,0,0,0,0,0,0,
0,0,0,0,0,0,0,0,0,0,0,0,0,0,0,0,
0,0,0,0,0,0,0,0,0,0,0,0,0,0,0,0,
0,0,0,0,0,0,0,0,0,0,0,0,0,0,0,0,
5027,5027,5027,5027,5027,5027,5027,5027,5027,5027,5027,5027,5027,5027,5027,5027
</chunk>
   <chunk x="-32" y="-16" width="16" height="16">
0,0,0,0,0,0,0,0,0,0,0,0,0,0,0,5027,
0,0,0,0,0,0,0,0,0,0,0,0,0,0,0,5027,
0,0,0,0,0,0,0,0,0,0,0,0,0,0,0,5027,
0,0,0,0,0,0,0,0,0,0,0,0,0,0,0,5027,
0,0,0,0,0,0,0,0,0,0,0,0,0,0,0,5027,
0,0,0,0,0,0,0,0,0,0,0,0,0,0,0,5027,
0,0,0,0,0,0,0,0,0,0,0,0,0,0,0,5027,
0,0,0,0,0,0,0,0,0,0,0,0,0,0,0,5027,
0,0,0,0,0,0,0,0,0,0,0,0,0,0,0,5027,
0,0,0,0,0,0,0,0,0,0,0,0,0,0,0,5027,
0,0,0,0,0,0,0,0,0,0,0,0,0,0,0,5027,
0,0,0,0,0,0,0,0,0,0,0,0,0,0,0,5027,
0,0,0,0,0,0,0,0,0,0,0,0,0,0,0,5027,
0,0,0,0,0,0,0,0,0,0,0,0,0,0,0,5027,
0,0,0,0,0,0,0,0,0,0,0,0,0,0,0,5027,
0,0,0,0,0,0,0,0,0,0,0,0,0,0,0,5027
</chunk>
   <chunk x="-16" y="-16" width="16" height="16">
0,0,0,0,0,0,0,0,0,0,0,0,0,0,0,0,
0,0,0,0,0,0,0,0,0,0,0,0,0,0,0,0,
0,0,0,0,0,0,0,0,0,0,0,0,0,0,0,0,
0,0,0,0,0,0,0,0,0,0,0,0,0,0,0,0,
0,0,0,0,0,0,0,0,0,0,0,0,0,0,0,0,
0,0,0,0,0,0,0,0,0,0,0,0,0,0,0,0,
0,0,0,0,0,0,0,0,0,0,0,0,0,0,0,0,
0,0,0,0,0,0,0,0,0,5035,5035,5035,5035,5035,0,0,
0,0,0,0,0,0,0,0,0,5027,5027,5027,5027,5027,0,0,
0,0,0,0,0,0,0,0,0,5027,5027,5027,5027,5027,0,0,
0,0,0,0,0,0,0,0,0,0,0,0,0,0,0,0,
0,0,0,0,0,0,0,0,0,0,0,0,0,0,0,0,
0,0,0,0,0,0,0,0,0,0,0,0,0,0,0,0,
0,0,0,0,0,0,0,0,0,0,0,0,0,0,0,0,
0,0,0,0,0,0,0,0,0,0,0,0,0,0,0,0,
0,0,0,0,0,0,0,0,0,0,0,0,0,0,0,0
</chunk>
   <chunk x="0" y="-16" width="16" height="16">
0,0,0,0,0,0,0,0,0,0,0,0,0,0,0,0,
0,0,0,0,0,0,0,0,0,0,0,0,0,0,0,0,
0,0,0,0,0,0,0,0,0,0,0,0,0,0,0,0,
0,0,0,0,0,0,0,0,0,0,0,0,0,0,0,0,
0,0,0,0,0,0,0,0,0,0,0,0,0,0,0,0,
0,0,0,0,0,0,0,0,0,0,0,0,0,0,0,0,
0,0,0,0,0,0,0,0,0,0,0,0,0,0,0,0,
0,0,0,0,0,0,0,0,0,0,0,0,0,0,0,0,
0,0,0,0,0,0,0,0,5027,5027,5027,5027,5027,5027,0,0,
0,0,0,0,0,0,0,0,5027,5027,5027,5027,5027,5027,0,0,
0,0,0,0,0,0,0,0,0,0,0,5027,5027,5027,0,0,
0,0,0,0,0,0,0,0,0,0,0,5027,5027,5027,0,0,
0,0,5027,5027,5027,5027,0,0,0,0,0,0,0,0,0,0,
0,0,5027,5027,5027,5027,0,0,0,0,0,0,0,0,0,0,
0,0,0,0,0,0,0,0,0,0,0,0,0,0,0,0,
0,0,0,0,0,0,0,0,0,0,0,0,0,0,0,0
</chunk>
   <chunk x="16" y="-16" width="16" height="16">
5027,0,0,0,0,0,0,0,0,0,0,0,0,0,0,0,
5027,0,0,0,0,0,0,0,0,0,0,0,0,0,0,0,
5027,0,0,0,0,0,0,0,0,0,0,0,0,0,0,0,
5027,0,0,0,0,0,0,0,0,0,0,0,0,0,0,0,
5027,0,0,0,0,0,0,0,0,0,0,0,0,0,0,0,
5027,0,0,0,0,0,0,0,0,0,0,0,0,0,0,0,
5027,0,0,0,0,0,0,0,0,0,0,0,0,0,0,0,
5027,0,0,0,0,0,0,0,0,0,0,0,0,0,0,0,
5027,0,0,0,0,0,0,0,0,0,0,0,0,0,0,0,
5027,0,0,0,0,0,0,0,0,0,0,0,0,0,0,0,
5027,0,0,0,0,0,0,0,0,0,0,0,0,0,0,0,
5027,0,0,0,0,0,0,0,0,0,0,0,0,0,0,0,
5027,0,0,0,0,0,0,0,0,0,0,0,0,0,0,0,
5027,0,0,0,0,0,0,0,0,0,0,0,0,0,0,0,
5027,0,0,0,0,0,0,0,0,0,0,0,0,0,0,0,
5027,0,0,0,0,0,0,0,0,0,0,0,0,0,0,0
</chunk>
   <chunk x="-32" y="0" width="16" height="16">
0,0,0,0,0,0,0,0,0,0,0,0,0,0,0,5027,
0,0,0,0,0,0,0,0,0,0,0,0,0,0,0,5027,
0,0,0,0,0,0,0,0,0,0,0,0,0,0,0,5027,
0,0,0,0,0,0,0,0,0,0,0,0,0,0,0,5027,
0,0,0,0,0,0,0,0,0,0,0,0,0,0,0,5027,
0,0,0,0,0,0,0,0,0,0,0,0,0,0,0,5027,
0,0,0,0,0,0,0,0,0,0,0,0,0,0,0,5027,
0,0,0,0,0,0,0,0,0,0,0,0,0,0,0,5027,
0,0,0,0,0,0,0,0,0,0,0,0,0,0,0,5027,
0,0,0,0,0,0,0,0,0,0,0,0,0,0,0,5027,
0,0,0,0,0,0,0,0,0,0,0,0,0,0,0,5027,
0,0,0,0,0,0,0,0,0,0,0,0,0,0,0,5027,
0,0,0,0,0,0,0,0,0,0,0,0,0,0,0,5027,
0,0,0,0,0,0,0,0,0,0,0,0,0,0,0,5027,
0,0,0,0,0,0,0,0,0,0,0,0,0,0,0,5027,
0,0,0,0,0,0,0,0,0,0,0,0,0,0,0,5027
</chunk>
   <chunk x="-16" y="0" width="16" height="16">
0,0,0,0,0,0,0,0,5027,5027,5027,5027,5027,0,0,0,
0,0,0,0,0,0,0,0,5027,5027,5027,5027,5027,0,0,0,
0,0,0,0,0,0,0,0,0,0,0,0,0,0,0,0,
0,0,0,0,0,0,0,0,0,0,0,0,0,0,0,0,
0,0,0,0,0,0,0,0,0,0,0,0,0,0,0,0,
0,0,0,0,0,0,0,0,0,0,0,0,0,0,0,0,
0,0,0,0,0,0,0,0,0,0,0,0,0,0,0,0,
0,0,0,0,0,0,0,0,0,0,0,0,0,0,0,0,
0,0,0,0,0,0,0,0,0,0,0,0,0,0,0,0,
0,0,0,0,0,0,0,0,0,0,0,0,0,0,0,0,
0,0,0,0,0,0,0,0,0,0,0,0,0,0,0,0,
0,0,0,0,0,0,0,0,0,0,0,0,0,0,0,0,
0,0,0,0,0,0,0,0,0,0,0,0,0,0,0,0,
0,0,0,0,0,0,0,0,0,0,0,0,0,0,0,0,
0,0,0,0,0,0,0,0,0,0,0,0,0,0,0,0,
0,0,0,0,0,0,0,0,0,0,0,0,0,0,0,0
</chunk>
   <chunk x="0" y="0" width="16" height="16">
0,0,0,0,0,0,0,5027,5027,5027,0,0,0,0,0,0,
0,0,0,0,0,0,0,5027,5027,5027,0,0,0,0,0,0,
0,0,0,0,0,0,0,0,0,0,0,0,0,0,0,0,
0,0,0,0,0,0,0,0,0,0,0,0,0,0,0,0,
0,0,0,0,0,0,0,0,0,0,0,0,0,0,0,0,
0,0,0,0,0,0,0,0,0,0,0,0,0,0,0,0,
0,0,0,0,0,0,0,0,0,0,0,0,0,0,0,0,
0,0,0,0,0,0,0,0,0,0,0,0,0,0,0,0,
0,0,0,0,0,0,0,0,0,0,0,0,0,0,0,0,
0,0,0,0,0,0,0,0,0,0,0,0,0,0,0,0,
0,0,0,0,0,0,0,0,0,0,0,0,0,0,0,0,
0,0,0,0,0,0,0,0,0,0,0,0,0,0,0,0,
0,0,0,0,0,0,0,0,0,0,0,0,0,0,0,0,
0,0,0,0,0,0,0,0,0,0,0,0,0,0,0,0,
0,0,0,0,0,0,0,0,0,0,0,0,0,0,0,0,
0,0,0,0,0,0,0,0,0,0,0,0,0,0,0,0
</chunk>
   <chunk x="16" y="0" width="16" height="16">
5027,0,0,0,0,0,0,0,0,0,0,0,0,0,0,0,
5027,0,0,0,0,0,0,0,0,0,0,0,0,0,0,0,
5027,0,0,0,0,0,0,0,0,0,0,0,0,0,0,0,
5027,0,0,0,0,0,0,0,0,0,0,0,0,0,0,0,
5027,0,0,0,0,0,0,0,0,0,0,0,0,0,0,0,
5027,0,0,0,0,0,0,0,0,0,0,0,0,0,0,0,
5027,0,0,0,0,0,0,0,0,0,0,0,0,0,0,0,
5027,0,0,0,0,0,0,0,0,0,0,0,0,0,0,0,
5027,0,0,0,0,0,0,0,0,0,0,0,0,0,0,0,
5027,0,0,0,0,0,0,0,0,0,0,0,0,0,0,0,
5027,0,0,0,0,0,0,0,0,0,0,0,0,0,0,0,
5027,0,0,0,0,0,0,0,0,0,0,0,0,0,0,0,
5027,0,0,0,0,0,0,0,0,0,0,0,0,0,0,0,
5027,0,0,0,0,0,0,0,0,0,0,0,0,0,0,0,
5027,0,0,0,0,0,0,0,0,0,0,0,0,0,0,0,
5027,0,0,0,0,0,0,0,0,0,0,0,0,0,0,0
</chunk>
   <chunk x="-32" y="16" width="16" height="16">
0,0,0,0,0,0,0,0,0,0,0,0,0,0,0,5027,
0,0,0,0,0,0,0,0,0,0,0,0,0,0,0,5027,
0,0,0,0,0,0,0,0,0,0,0,0,0,0,0,5027,
0,0,0,0,0,0,0,0,0,0,0,0,0,0,0,5027,
0,0,0,0,0,0,0,0,0,0,0,0,0,0,0,5027,
0,0,0,0,0,0,0,0,0,0,0,0,0,0,0,5027,
0,0,0,0,0,0,0,0,0,0,0,0,0,0,0,5027,
0,0,0,0,0,0,0,0,0,0,0,0,0,0,0,5027,
0,0,0,0,0,0,0,0,0,0,0,0,0,0,0,5027,
0,0,0,0,0,0,0,0,0,0,0,0,0,0,0,5027,
0,0,0,0,0,0,0,0,0,0,0,0,0,0,0,5027,
0,0,0,0,0,0,0,0,0,0,0,0,0,0,0,5027,
0,0,0,0,0,0,0,0,0,0,0,0,0,0,0,5027,
0,0,0,0,0,0,0,0,0,0,0,0,0,0,0,5027,
0,0,0,0,0,0,0,0,0,0,0,0,0,0,0,5027,
0,0,0,0,0,0,0,0,0,0,0,0,0,0,0,5027
</chunk>
   <chunk x="16" y="16" width="16" height="16">
5027,0,0,0,0,0,0,0,0,0,0,0,0,0,0,0,
5027,0,0,0,0,0,0,0,0,0,0,0,0,0,0,0,
5027,0,0,0,0,0,0,0,0,0,0,0,0,0,0,0,
5027,0,0,0,0,0,0,0,0,0,0,0,0,0,0,0,
5027,0,0,0,0,0,0,0,0,0,0,0,0,0,0,0,
5027,0,0,0,0,0,0,0,0,0,0,0,0,0,0,0,
5027,0,0,0,0,0,0,0,0,0,0,0,0,0,0,0,
5027,0,0,0,0,0,0,0,0,0,0,0,0,0,0,0,
5027,0,0,0,0,0,0,0,0,0,0,0,0,0,0,0,
5027,0,0,0,0,0,0,0,0,0,0,0,0,0,0,0,
5027,0,0,0,0,0,0,0,0,0,0,0,0,0,0,0,
5027,0,0,0,0,0,0,0,0,0,0,0,0,0,0,0,
5027,0,0,0,0,0,0,0,0,0,0,0,0,0,0,0,
5027,0,0,0,0,0,0,0,0,0,0,0,0,0,0,0,
5027,0,0,0,0,0,0,0,0,0,0,0,0,0,0,0,
5027,0,0,0,0,0,0,0,0,0,0,0,0,0,0,0
</chunk>
   <chunk x="-32" y="32" width="16" height="16">
0,0,0,0,0,0,0,0,0,0,0,0,0,0,0,5027,
0,0,0,0,0,0,0,0,0,0,0,0,0,0,0,5027,
0,0,0,0,0,0,0,0,0,0,0,0,0,0,0,5027,
0,0,0,0,0,0,0,0,0,0,0,0,0,0,0,5027,
0,0,0,0,0,0,0,0,0,0,0,0,0,0,0,5027,
0,0,0,0,0,0,0,0,0,0,0,0,0,0,0,5027,
0,0,0,0,0,0,0,0,0,0,0,0,0,0,0,5027,
0,0,0,0,0,0,0,0,0,0,0,0,0,0,0,5027,
0,0,0,0,0,0,0,0,0,0,0,0,0,0,0,5027,
0,0,0,0,0,0,0,0,0,0,0,0,0,0,0,5027,
0,0,0,0,0,0,0,0,0,0,0,0,0,0,0,5027,
0,0,0,0,0,0,0,0,0,0,0,0,0,0,0,5027,
0,0,0,0,0,0,0,0,0,0,0,0,0,0,0,5027,
0,0,0,0,0,0,0,0,0,0,0,0,0,0,0,5027,
0,0,0,0,0,0,0,0,0,0,0,0,0,0,0,5027,
0,0,0,0,0,0,0,0,0,0,0,0,0,0,0,5027
</chunk>
   <chunk x="16" y="32" width="16" height="16">
5027,0,0,0,0,0,0,0,0,0,0,0,0,0,0,0,
5027,0,0,0,0,0,0,0,0,0,0,0,0,0,0,0,
5027,0,0,0,0,0,0,0,0,0,0,0,0,0,0,0,
5027,0,0,0,0,0,0,0,0,0,0,0,0,0,0,0,
5027,0,0,0,0,0,0,0,0,0,0,0,0,0,0,0,
5027,0,0,0,0,0,0,0,0,0,0,0,0,0,0,0,
5027,0,0,0,0,0,0,0,0,0,0,0,0,0,0,0,
5027,0,0,0,0,0,0,0,0,0,0,0,0,0,0,0,
5027,0,0,0,0,0,0,0,0,0,0,0,0,0,0,0,
5027,0,0,0,0,0,0,0,0,0,0,0,0,0,0,0,
5027,0,0,0,0,0,0,0,0,0,0,0,0,0,0,0,
5027,0,0,0,0,0,0,0,0,0,0,0,0,0,0,0,
5027,0,0,0,0,0,0,0,0,0,0,0,0,0,0,0,
5027,0,0,0,0,0,0,0,0,0,0,0,0,0,0,0,
5027,0,0,0,0,0,0,0,0,0,0,0,0,0,0,0,
5027,0,0,0,0,0,0,0,0,0,0,0,0,0,0,0
</chunk>
   <chunk x="-16" y="48" width="16" height="16">
5027,5027,5027,5027,5027,5027,5027,5027,5027,5027,5027,5027,5027,5027,5027,5027,
0,0,0,0,0,0,0,0,0,0,0,0,0,0,0,0,
0,0,0,0,0,0,0,0,0,0,0,0,0,0,0,0,
0,0,0,0,0,0,0,0,0,0,0,0,0,0,0,0,
0,0,0,0,0,0,0,0,0,0,0,0,0,0,0,0,
0,0,0,0,0,0,0,0,0,0,0,0,0,0,0,0,
0,0,0,0,0,0,0,0,0,0,0,0,0,0,0,0,
0,0,0,0,0,0,0,0,0,0,0,0,0,0,0,0,
0,0,0,0,0,0,0,0,0,0,0,0,0,0,0,0,
0,0,0,0,0,0,0,0,0,0,0,0,0,0,0,0,
0,0,0,0,0,0,0,0,0,0,0,0,0,0,0,0,
0,0,0,0,0,0,0,0,0,0,0,0,0,0,0,0,
0,0,0,0,0,0,0,0,0,0,0,0,0,0,0,0,
0,0,0,0,0,0,0,0,0,0,0,0,0,0,0,0,
0,0,0,0,0,0,0,0,0,0,0,0,0,0,0,0,
0,0,0,0,0,0,0,0,0,0,0,0,0,0,0,0
</chunk>
   <chunk x="0" y="48" width="16" height="16">
5027,5027,5027,5027,5027,5027,5027,5027,5027,5027,5027,5027,5027,5027,5027,5027,
0,0,0,0,0,0,0,0,0,0,0,0,0,0,0,0,
0,0,0,0,0,0,0,0,0,0,0,0,0,0,0,0,
0,0,0,0,0,0,0,0,0,0,0,0,0,0,0,0,
0,0,0,0,0,0,0,0,0,0,0,0,0,0,0,0,
0,0,0,0,0,0,0,0,0,0,0,0,0,0,0,0,
0,0,0,0,0,0,0,0,0,0,0,0,0,0,0,0,
0,0,0,0,0,0,0,0,0,0,0,0,0,0,0,0,
0,0,0,0,0,0,0,0,0,0,0,0,0,0,0,0,
0,0,0,0,0,0,0,0,0,0,0,0,0,0,0,0,
0,0,0,0,0,0,0,0,0,0,0,0,0,0,0,0,
0,0,0,0,0,0,0,0,0,0,0,0,0,0,0,0,
0,0,0,0,0,0,0,0,0,0,0,0,0,0,0,0,
0,0,0,0,0,0,0,0,0,0,0,0,0,0,0,0,
0,0,0,0,0,0,0,0,0,0,0,0,0,0,0,0,
0,0,0,0,0,0,0,0,0,0,0,0,0,0,0,0
</chunk>
  </data>
 </layer>
 <layer id="13" name="Npc:0:bob:" width="30" height="20" visible="0">
  <data encoding="csv">
   <chunk x="0" y="-16" width="16" height="16">
0,0,0,0,0,0,0,0,0,0,0,0,0,0,0,0,
0,0,0,0,0,0,0,0,0,0,0,0,0,0,0,0,
0,0,0,0,0,0,0,0,0,0,0,0,0,0,0,0,
0,0,0,0,0,0,0,0,0,0,0,0,0,0,0,0,
0,0,0,0,0,0,0,0,0,0,0,0,0,0,0,0,
0,0,0,0,0,0,0,0,0,0,0,0,0,0,0,0,
0,0,0,0,0,0,0,0,0,0,0,0,0,0,0,0,
0,0,0,0,0,0,0,0,0,0,0,0,0,0,0,0,
0,0,0,0,0,0,0,0,0,0,0,0,0,0,0,0,
0,0,0,0,0,0,0,0,0,0,0,0,0,0,0,0,
0,0,0,0,0,0,0,0,0,0,0,0,0,0,0,0,
0,0,0,0,0,0,0,0,0,0,0,0,0,0,0,0,
0,0,0,0,0,0,0,0,0,0,0,0,0,0,0,0,
0,0,0,0,0,0,0,0,0,0,0,0,0,0,0,0,
0,0,5083,0,0,0,0,0,0,0,0,0,0,0,0,0,
0,0,0,0,0,0,0,0,0,0,0,0,0,0,0,0
</chunk>
  </data>
 </layer>
 <layer id="15" name="AreaSpawner:5:bird:1" width="30" height="20">
  <data encoding="csv">
   <chunk x="0" y="32" width="16" height="16">
0,0,0,0,0,0,0,0,0,0,0,0,0,0,0,0,
0,0,0,0,0,0,0,0,0,0,0,0,0,0,0,0,
0,0,0,0,5086,0,0,0,0,0,0,0,0,0,0,0,
0,0,0,0,0,0,0,0,0,0,0,0,0,0,0,0,
0,0,0,0,0,0,0,0,0,0,0,0,0,0,0,0,
0,0,0,0,0,0,0,0,0,0,0,0,0,0,0,0,
0,0,0,0,0,0,0,0,0,0,0,0,0,0,0,0,
0,0,0,0,0,0,0,0,0,0,0,0,0,0,0,0,
0,0,0,0,0,0,0,0,0,0,0,0,0,0,0,0,
0,0,0,0,0,0,0,0,0,0,0,0,0,0,0,0,
0,0,0,0,0,0,0,0,0,0,0,0,0,0,0,0,
0,0,0,0,0,0,0,0,0,0,0,0,0,0,0,0,
0,0,0,0,0,0,0,0,0,0,0,0,0,0,0,0,
0,0,0,0,0,0,0,0,0,0,0,0,0,0,0,0,
0,0,0,0,0,0,0,0,0,0,0,0,0,0,0,0,
0,0,0,0,0,0,0,0,0,0,0,0,0,0,0,0
</chunk>
  </data>
 </layer>
 <layer id="16" name="AreaSpawner:0" width="30" height="20">
  <data encoding="csv">
   <chunk x="0" y="-16" width="16" height="16">
0,0,0,0,0,0,0,0,0,0,0,0,0,0,0,0,
0,0,0,0,0,0,0,0,0,0,0,0,0,0,0,0,
0,0,0,0,0,0,0,0,0,0,0,0,0,0,0,0,
0,0,0,0,0,0,0,0,0,0,0,0,0,0,0,0,
0,0,0,0,0,0,0,0,0,0,0,0,0,0,0,0,
0,0,0,0,0,0,0,0,0,0,0,0,0,0,0,0,
0,0,0,0,0,0,0,0,0,0,0,0,0,0,0,0,
0,0,0,0,0,0,0,0,0,0,0,0,0,0,0,0,
0,0,0,0,0,0,0,0,0,0,0,0,0,0,0,0,
0,0,0,0,0,0,0,0,0,0,0,0,0,0,0,0,
0,0,0,0,0,0,0,0,0,0,0,0,0,0,0,0,
0,5086,0,0,0,0,0,0,0,0,0,0,0,0,0,0,
0,0,0,0,0,0,0,0,0,0,0,0,0,0,0,0,
0,0,0,0,0,0,0,0,0,0,0,0,0,0,0,0,
0,0,0,0,0,0,0,0,0,0,0,0,0,0,0,0,
0,0,0,0,0,0,0,0,0,0,0,0,0,0,0,0
</chunk>
  </data>
 </layer>
 <layer id="14" name="Layer:0" width="30" height="20">
  <data encoding="csv">
   <chunk x="0" y="0" width="16" height="16">
5086,0,0,0,0,0,0,0,0,0,0,0,0,0,0,0,
0,0,0,0,0,0,0,0,0,0,0,0,0,0,0,0,
0,0,0,0,0,0,0,0,0,0,0,0,0,0,0,0,
0,0,0,0,0,0,0,0,0,0,0,0,0,0,0,0,
0,0,0,0,0,0,0,0,0,0,0,0,0,0,0,0,
0,0,0,0,0,0,0,0,0,0,0,0,0,0,0,0,
0,0,0,0,0,0,0,0,0,0,0,0,0,0,0,0,
0,0,0,0,0,0,0,0,0,0,0,0,0,0,0,0,
0,0,0,0,0,0,0,0,0,0,0,0,0,0,0,0,
0,0,0,0,0,0,0,0,0,0,0,0,0,0,0,0,
0,0,0,0,0,0,0,0,0,0,0,0,0,0,0,0,
0,0,0,0,0,0,0,0,0,0,0,0,0,0,0,0,
0,0,0,0,0,0,0,0,0,0,0,0,0,0,0,0,
0,0,0,0,0,0,0,0,0,0,0,0,0,0,0,0,
0,0,0,0,0,0,0,0,0,0,0,0,0,0,0,0,
0,0,0,0,0,0,0,0,0,0,0,0,0,0,0,0
</chunk>
  </data>
 </layer>
 <layer id="17" name="Region:Meadow Village" width="30" height="20" visible="0">
  <data encoding="csv">
   <chunk x="-16" y="-16" width="16" height="16">
0,0,0,0,0,0,0,0,0,0,0,0,0,0,0,0,
0,0,0,0,0,0,0,0,0,0,0,0,0,0,0,0,
0,0,0,0,0,0,0,0,0,0,0,0,0,0,0,0,
0,0,0,0,0,5085,5085,5085,5085,5085,5085,5085,5085,5085,5085,5085,
0,0,0,0,0,5085,5085,5085,5085,5085,5085,5085,5085,5085,5085,5085,
0,0,0,0,0,5085,5085,5085,5085,5085,5085,5085,5085,5085,5085,5085,
0,0,0,0,0,5085,5085,5085,5085,5085,5085,5085,5085,5085,5085,5085,
0,0,0,0,0,5085,5085,5085,5085,5085,5085,5085,5085,5085,5085,5085,
0,0,0,0,0,5085,5085,5085,5085,5085,5085,5085,5085,5085,5085,5085,
0,0,0,0,0,5085,5085,5085,5085,5085,5085,5085,5085,5085,5085,5085,
0,0,0,0,0,5085,5085,5085,5085,5085,5085,5085,5085,5085,5085,5085,
0,0,0,0,0,5085,5085,5085,5085,5085,5085,5085,5085,5085,5085,5085,
0,0,0,0,5085,5085,5085,5085,5085,5085,5085,5085,5085,5085,5085,5085,
0,0,0,0,5085,5085,5085,5085,5085,5085,5085,5085,5085,5085,5085,5085,
0,0,0,0,5085,5085,5085,5085,5085,5085,5085,5085,5085,5085,5085,5085,
0,0,0,0,5085,5085,5085,5085,5085,5085,5085,5085,5085,5085,5085,5085
</chunk>
   <chunk x="0" y="-16" width="16" height="16">
0,0,0,0,0,0,0,0,0,0,0,0,0,0,0,0,
0,0,0,0,0,0,0,0,0,0,0,0,0,0,0,0,
0,0,0,0,0,0,0,0,0,0,0,0,0,0,0,0,
5085,5085,5085,5085,5085,5085,5085,5085,5085,5085,5085,5085,5085,5085,5085,5085,
5085,5085,5085,5085,5085,5085,5085,5085,5085,5085,5085,5085,5085,5085,5085,5085,
5085,5085,5085,5085,5085,5085,5085,5085,5085,5085,5085,5085,5085,5085,5085,5085,
5085,5085,5085,5085,5085,5085,5085,5085,5085,5085,5085,5085,5085,5085,5085,5085,
5085,5085,5085,5085,5085,5085,5085,5085,5085,5085,5085,5085,5085,5085,5085,5085,
5085,5085,5085,5085,5085,5085,5085,5085,5085,5085,5085,5085,5085,5085,5085,5085,
5085,5085,5085,5085,5085,5085,5085,5085,5085,5085,5085,5085,5085,5085,5085,5085,
5085,5085,5085,5085,5085,5085,5085,5085,5085,5085,5085,5085,5085,5085,5085,5085,
5085,5085,5085,5085,5085,5085,5085,5085,5085,5085,5085,5085,5085,5085,5085,5085,
5085,5085,5085,5085,5085,5085,5085,5085,5085,5085,5085,5085,5085,5085,5085,5085,
5085,5085,5085,5085,5085,5085,5085,5085,5085,5085,5085,5085,5085,5085,5085,5085,
5085,5085,5085,5085,5085,5085,5085,5085,5085,5085,5085,5085,5085,5085,5085,5085,
5085,5085,5085,5085,5085,5085,5085,5085,5085,5085,5085,5085,5085,5085,5085,5085
</chunk>
   <chunk x="-16" y="0" width="16" height="16">
0,0,0,0,5085,5085,5085,5085,5085,5085,5085,5085,5085,5085,5085,5085,
0,0,0,0,5085,5085,5085,5085,5085,5085,5085,5085,5085,5085,5085,5085,
0,0,0,0,5085,5085,5085,5085,5085,5085,5085,5085,5085,5085,5085,5085,
0,0,0,0,5085,5085,5085,5085,5085,5085,5085,5085,5085,5085,5085,5085,
0,0,0,0,5085,5085,5085,5085,5085,5085,5085,5085,5085,5085,5085,5085,
0,0,0,0,5085,5085,5085,5085,5085,5085,5085,5085,5085,5085,5085,5085,
0,0,0,0,0,0,0,0,0,0,0,0,0,0,0,0,
0,0,0,0,0,0,0,0,0,0,0,0,0,0,0,0,
0,0,0,0,0,0,0,0,0,0,0,0,0,0,0,0,
0,0,0,0,0,0,0,0,0,0,0,0,0,0,0,0,
0,0,0,0,0,0,0,0,0,0,0,0,0,0,0,0,
0,0,0,0,0,0,0,0,0,0,0,0,0,0,0,0,
0,0,0,0,0,0,0,0,0,0,0,0,0,0,0,0,
0,0,0,0,0,0,0,0,0,0,0,0,0,0,0,0,
0,0,0,0,0,0,0,0,0,0,0,0,0,0,0,0,
0,0,0,0,0,0,0,0,0,0,0,0,0,0,0,0
</chunk>
   <chunk x="0" y="0" width="16" height="16">
5085,5085,5085,5085,5085,5085,5085,5085,5085,5085,5085,5085,5085,5085,5085,5085,
5085,5085,5085,5085,5085,5085,5085,5085,5085,5085,5085,5085,5085,5085,5085,5085,
5085,5085,5085,5085,5085,5085,5085,5085,5085,5085,5085,5085,5085,5085,5085,5085,
5085,5085,5085,5085,5085,5085,5085,5085,5085,5085,5085,5085,5085,5085,5085,5085,
5085,5085,5085,5085,5085,5085,5085,5085,5085,5085,5085,5085,5085,5085,5085,5085,
5085,5085,5085,5085,5085,5085,5085,5085,5085,5085,5085,5085,5085,5085,5085,5085,
0,5085,5085,5085,5085,5085,5085,5085,5085,5085,5085,5085,5085,5085,5085,5085,
0,0,0,0,0,0,0,0,0,0,0,0,0,0,0,0,
0,0,0,0,0,0,0,0,0,0,0,0,0,0,0,0,
0,0,0,0,0,0,0,0,0,0,0,0,0,0,0,0,
0,0,0,0,0,0,0,0,0,0,0,0,0,0,0,0,
0,0,0,0,0,0,0,0,0,0,0,0,0,0,0,0,
0,0,0,0,0,0,0,0,0,0,0,0,0,0,0,0,
0,0,0,0,0,0,0,0,0,0,0,0,0,0,0,0,
0,0,0,0,0,0,0,0,0,0,0,0,0,0,0,0,
0,0,0,0,0,0,0,0,0,0,0,0,0,0,0,0
</chunk>
  </data>
 </layer>
</map>
